;FLAVOR:Marlin
;TIME:16870
;Filament used: 17.0906m
;Layer height: 0.28
;MINX:56.5
;MINY:36.973
;MINZ:0.28
;MAXX:178.5
;MAXY:180.973
;MAXZ:33.04
;Generated with Cura_SteamEngine 4.10.0
M140 S60
M105
M190 S60
M104 S200
M105
M109 S200
M82 ;absolute extrusion mode
; Ender 3 Custom Start G-code
G92 E0 ; Reset Extruder
G28 ; Home all axes
G1 Z2.0 F3000 ; Move Z Axis up little to prevent scratching of Heat Bed
G1 X0.1 Y20 Z0.3 F5000.0 ; Move to start position
G1 X0.1 Y200.0 Z0.3 F1500.0 E15 ; Draw the first line
G1 X0.4 Y200.0 Z0.3 F5000.0 ; Move to side a little
G1 X0.4 Y20 Z0.3 F1500.0 E30 ; Draw the second line
G92 E0 ; Reset Extruder
G1 Z2.0 F3000 ; Move Z Axis up little to prevent scratching of Heat Bed
G1 X5 Y20 Z0.3 F5000.0 ; Move over to prevent blob squish
G92 E0
G92 E0
G1 F2700 E-5
;LAYER_COUNT:118
;LAYER:0
M107
G0 F6000 X58.496 Y41.676 Z0.28
;TYPE:SKIRT
G1 F2700 E0
G1 F1200 X59.066 Y40.931 E0.04368
G1 X59.698 Y40.237 E0.08739
G1 X60.386 Y39.6 E0.13105
G1 X61.126 Y39.024 E0.17471
G1 X61.912 Y38.512 E0.21839
G1 X62.739 Y38.07 E0.26205
G1 X63.601 Y37.7 E0.30573
G1 X64.491 Y37.404 E0.34941
G1 X65.403 Y37.186 E0.39307
G1 X66.33 Y37.045 E0.43673
G1 X67.201 Y36.986 E0.47738
G1 X67.522 Y36.977 E0.49234
G1 X67.83 Y36.973 E0.50668
G1 X166.793 Y36.973 E5.11481
G1 X167.649 Y36.984 E5.15467
G1 X168.585 Y37.038 E5.19833
G1 X169.513 Y37.17 E5.24198
G1 X170.427 Y37.382 E5.28567
G1 X171.319 Y37.671 E5.32933
G1 X172.184 Y38.034 E5.37301
G1 X173.014 Y38.47 E5.41666
G1 X173.805 Y38.975 E5.46036
G1 X174.549 Y39.546 E5.50403
G1 X175.242 Y40.178 E5.54771
G1 X175.879 Y40.866 E5.59136
G1 X176.454 Y41.607 E5.63504
G1 X176.965 Y42.393 E5.67869
G1 X177.407 Y43.221 E5.7224
G1 X177.776 Y44.083 E5.76606
G1 X178.071 Y44.973 E5.80972
G1 X178.289 Y45.885 E5.85338
G1 X178.429 Y46.813 E5.89708
G1 X178.487 Y47.674 E5.93726
G1 X178.496 Y47.994 E5.95217
G1 X178.5 Y48.303 E5.96656
G1 X178.499 Y169.373 E11.60409
G1 X178.49 Y170.1 E11.63794
G1 X178.439 Y171.037 E11.68164
G1 X178.307 Y171.965 E11.72528
G1 X178.098 Y172.879 E11.76894
G1 X177.811 Y173.772 E11.81262
G1 X177.449 Y174.638 E11.85632
G1 X177.015 Y175.469 E11.89998
G1 X176.511 Y176.26 E11.94365
G1 X175.942 Y177.005 E11.9873
G1 X175.311 Y177.7 E12.03101
G1 X174.624 Y178.338 E12.07467
G1 X173.885 Y178.915 E12.11833
G1 X173.099 Y179.427 E12.16201
G1 X172.273 Y179.87 E12.20565
G1 X171.411 Y180.242 E12.24937
G1 X170.522 Y180.538 E12.293
G1 X169.61 Y180.758 E12.33668
G1 X168.683 Y180.899 E12.38034
G1 X167.799 Y180.96 E12.4216
G1 X167.478 Y180.969 E12.43656
G1 X167.17 Y180.973 E12.4509
G1 X68.065 Y180.972 E17.06564
G1 X67.367 Y180.963 E17.09815
G1 X66.431 Y180.911 E17.1418
G1 X65.502 Y180.779 E17.18549
G1 X64.588 Y180.569 E17.22916
G1 X63.695 Y180.282 E17.27284
G1 X62.83 Y179.919 E17.31652
G1 X61.999 Y179.485 E17.36017
G1 X61.208 Y178.981 E17.40385
G1 X60.463 Y178.411 E17.44753
G1 X59.769 Y177.78 E17.4912
G1 X59.132 Y177.093 E17.53483
G1 X58.555 Y176.353 E17.57852
G1 X58.043 Y175.567 E17.6222
G1 X57.6 Y174.74 E17.66589
G1 X57.229 Y173.879 E17.70954
G1 X56.933 Y172.989 E17.75321
G1 X56.714 Y172.077 E17.79689
G1 X56.573 Y171.15 E17.84055
G1 X56.513 Y170.261 E17.88204
G1 X56.504 Y169.928 E17.89755
G1 X56.5 Y169.631 E17.91138
G1 X56.501 Y48.498 E23.55184
G1 X56.51 Y47.833 E23.58281
G1 X56.563 Y46.897 E23.62646
G1 X56.695 Y45.968 E23.67016
G1 X56.906 Y45.054 E23.71384
G1 X57.194 Y44.162 E23.75748
G1 X57.557 Y43.297 E23.80116
G1 X57.992 Y42.466 E23.84484
G1 X58.496 Y41.676 E23.88847
G0 F6000 X58.892 Y41.808
G1 F1200 X59.461 Y41.084 E23.93135
G1 X60.089 Y40.412 E23.97418
G1 X60.774 Y39.796 E24.01708
G1 X61.51 Y39.243 E24.05994
G1 X62.291 Y38.755 E24.10283
G1 X63.111 Y38.337 E24.14568
G1 X63.965 Y37.992 E24.18857
G1 X64.845 Y37.722 E24.23143
G1 X65.745 Y37.53 E24.27428
G1 X66.659 Y37.416 E24.31717
G1 X67.212 Y37.386 E24.34296
G1 X67.533 Y37.377 E24.35791
G1 X67.83 Y37.373 E24.37174
G1 X166.793 Y37.373 E28.97988
G1 X167.643 Y37.384 E29.01946
G1 X168.562 Y37.437 E29.06232
G1 X169.473 Y37.57 E29.10519
G1 X170.369 Y37.781 E29.14806
G1 X171.243 Y38.069 E29.1909
G1 X172.09 Y38.432 E29.23381
G1 X172.901 Y38.867 E29.27667
G1 X173.671 Y39.371 E29.31952
G1 X174.395 Y39.94 E29.3624
G1 X175.067 Y40.57 E29.40529
G1 X175.682 Y41.255 E29.44815
G1 X176.235 Y41.991 E29.49102
G1 X176.722 Y42.772 E29.53388
G1 X177.139 Y43.593 E29.57676
G1 X177.484 Y44.447 E29.61964
G1 X177.753 Y45.327 E29.66249
G1 X177.945 Y46.228 E29.70539
G1 X178.058 Y47.141 E29.74823
G1 X178.087 Y47.685 E29.77359
G1 X178.096 Y48.005 E29.7885
G1 X178.1 Y48.303 E29.80238
G1 X178.099 Y169.368 E35.43967
G1 X178.09 Y170.095 E35.47353
G1 X178.039 Y171.014 E35.51638
G1 X177.908 Y171.926 E35.55929
G1 X177.698 Y172.822 E35.60214
G1 X177.412 Y173.697 E35.645
G1 X177.051 Y174.544 E35.68788
G1 X176.617 Y175.356 E35.73075
G1 X176.115 Y176.128 E35.77363
G1 X175.547 Y176.853 E35.81651
G1 X174.919 Y177.526 E35.85938
G1 X174.235 Y178.142 E35.90224
G1 X173.5 Y178.696 E35.9451
G1 X172.72 Y179.185 E35.98796
G1 X171.9 Y179.604 E36.03084
G1 X171.047 Y179.95 E36.0737
G1 X170.167 Y180.221 E36.11658
G1 X169.267 Y180.414 E36.15944
G1 X168.353 Y180.529 E36.20233
G1 X167.788 Y180.56 E36.22868
G1 X167.467 Y180.569 E36.24364
G1 X167.17 Y180.573 E36.25747
G1 X68.07 Y180.572 E40.87198
G1 X67.372 Y180.563 E40.90448
G1 X66.453 Y180.511 E40.94734
G1 X65.542 Y180.38 E40.9902
G1 X64.646 Y180.17 E41.03305
G1 X63.771 Y179.883 E41.07593
G1 X62.924 Y179.521 E41.11882
G1 X62.112 Y179.087 E41.16169
G1 X61.341 Y178.585 E41.20453
G1 X60.616 Y178.017 E41.24742
G1 X59.943 Y177.388 E41.29031
G1 X59.328 Y176.704 E41.33315
G1 X58.774 Y175.969 E41.376
G1 X58.286 Y175.188 E41.41889
G1 X57.867 Y174.368 E41.46176
G1 X57.521 Y173.515 E41.50463
G1 X57.251 Y172.635 E41.54749
G1 X57.058 Y171.734 E41.59039
G1 X56.944 Y170.821 E41.63324
G1 X56.913 Y170.25 E41.65986
G1 X56.904 Y169.917 E41.67538
G1 X56.9 Y169.631 E41.68869
G1 X56.901 Y48.504 E47.32888
G1 X56.91 Y47.839 E47.35984
G1 X56.962 Y46.919 E47.40275
G1 X57.094 Y46.008 E47.44561
G1 X57.305 Y45.112 E47.48848
G1 X57.592 Y44.237 E47.53136
G1 X57.955 Y43.391 E47.57422
G1 X58.389 Y42.579 E47.61709
G1 X58.892 Y41.808 E47.65996
G0 F6000 X59.288 Y41.944
G1 F1200 X59.855 Y41.24 E47.70205
G1 X60.481 Y40.59 E47.74407
G1 X61.162 Y39.997 E47.78612
G1 X61.894 Y39.467 E47.8282
G1 X62.669 Y39.004 E47.87024
G1 X63.482 Y38.611 E47.91229
G1 X64.327 Y38.291 E47.95436
G1 X65.196 Y38.048 E47.99638
G1 X66.084 Y37.882 E48.03844
G1 X67.223 Y37.786 E48.09167
G1 X67.544 Y37.777 E48.10662
G1 X67.83 Y37.773 E48.11994
G1 X166.793 Y37.773 E52.72807
G1 X167.637 Y37.784 E52.76737
G1 X168.539 Y37.837 E52.80945
G1 X169.432 Y37.969 E52.85148
G1 X170.31 Y38.18 E52.89353
G1 X171.166 Y38.468 E52.93558
G1 X171.993 Y38.83 E52.97762
G1 X172.785 Y39.265 E53.01969
G1 X173.536 Y39.767 E53.06176
G1 X174.239 Y40.334 E53.10381
G1 X174.889 Y40.961 E53.14586
G1 X175.481 Y41.643 E53.18792
G1 X176.011 Y42.374 E53.22996
G1 X176.473 Y43.15 E53.27201
G1 X176.866 Y43.963 E53.31406
G1 X177.184 Y44.808 E53.3561
G1 X177.427 Y45.678 E53.39816
G1 X177.592 Y46.566 E53.44022
G1 X177.687 Y47.696 E53.49302
G1 X177.696 Y48.016 E53.50793
G1 X177.7 Y48.303 E53.52129
G1 X177.699 Y169.363 E59.15835
G1 X177.69 Y170.09 E59.19221
G1 X177.639 Y170.992 E59.23428
G1 X177.508 Y171.886 E59.27635
G1 X177.299 Y172.764 E59.31838
G1 X177.013 Y173.621 E59.36044
G1 X176.652 Y174.449 E59.40251
G1 X176.22 Y175.241 E59.44451
G1 X175.719 Y175.993 E59.48659
G1 X175.153 Y176.697 E59.52865
G1 X174.528 Y177.348 E59.57067
G1 X173.847 Y177.942 E59.61275
G1 X173.116 Y178.473 E59.65482
G1 X172.342 Y178.937 E59.69684
G1 X171.529 Y179.331 E59.73891
G1 X170.685 Y179.651 E59.78094
G1 X169.815 Y179.896 E59.82303
G1 X168.928 Y180.062 E59.86505
G1 X167.777 Y180.16 E59.91884
G1 X167.456 Y180.169 E59.93379
G1 X167.17 Y180.173 E59.94711
G1 X68.075 Y180.172 E64.56139
G1 X67.377 Y180.163 E64.59389
G1 X66.476 Y180.112 E64.63591
G1 X65.582 Y179.98 E64.67799
G1 X64.704 Y179.771 E64.72002
G1 X63.847 Y179.484 E64.7621
G1 X63.02 Y179.123 E64.80412
G1 X62.227 Y178.69 E64.84619
G1 X61.476 Y178.189 E64.88823
G1 X60.772 Y177.623 E64.93029
G1 X60.121 Y176.997 E64.97234
G1 X59.528 Y176.316 E65.01439
G1 X58.998 Y175.585 E65.05643
G1 X58.534 Y174.81 E65.0985
G1 X58.14 Y173.997 E65.14056
G1 X57.82 Y173.153 E65.18259
G1 X57.576 Y172.283 E65.22467
G1 X57.41 Y171.395 E65.26673
G1 X57.313 Y170.24 E65.3207
G1 X57.304 Y169.907 E65.33622
G1 X57.3 Y169.631 E65.34907
G1 X57.301 Y48.509 E70.98902
G1 X57.31 Y47.844 E71.01998
G1 X57.362 Y46.942 E71.06205
G1 X57.494 Y46.049 E71.10409
G1 X57.704 Y45.171 E71.14612
G1 X57.991 Y44.314 E71.18821
G1 X58.353 Y43.487 E71.23024
G1 X58.786 Y42.695 E71.27228
G1 X59.288 Y41.944 E71.31434
G1 F2700 E66.31434
G0 F6000 X114.997 Y58.597
G1 F2700 E71.31434
G1 F1200 X114.785 Y59.101 E71.3398
G1 X114.749 Y59.22 E71.34559
G1 X114.667 Y59.643 E71.36565
G1 X114.656 Y59.757 E71.37098
G1 X114.656 Y60.133 E71.38849
G1 X114.662 Y60.218 E71.39246
G1 X114.707 Y60.531 E71.40718
G1 X114.728 Y60.623 E71.41158
G1 X114.818 Y60.914 E71.42576
G1 X114.835 Y60.963 E71.42818
G1 X114.985 Y61.332 E71.44672
G1 X115.068 Y61.475 E71.45442
G1 X115.429 Y61.938 E71.48176
G1 X115.525 Y62.035 E71.48812
G1 X115.881 Y62.323 E71.50944
G1 X115.985 Y62.391 E71.51522
G1 X116.27 Y62.536 E71.53011
G1 X116.601 Y62.691 E71.54713
G1 X116.77 Y62.742 E71.55535
G1 X117.198 Y62.803 E71.57548
G1 X117.271 Y62.809 E71.57889
G1 X117.674 Y62.817 E71.59766
G1 X117.784 Y62.809 E71.6028
G1 X118.277 Y62.727 E71.62607
G1 X118.438 Y62.676 E71.63393
G1 X119.49 Y62.173 E71.68823
G1 X119.697 Y62.009 E71.70053
G1 X119.947 Y61.7 E71.71904
G1 X120.064 Y61.463 E71.73134
G1 X120.31 Y60.436 E71.78052
G1 X120.326 Y60.335 E71.78528
G1 X120.35 Y59.962 E71.80268
G1 X120.348 Y59.859 E71.80748
G1 X120.315 Y59.549 E71.822
G1 X120.305 Y59.487 E71.82492
G1 X120.241 Y59.189 E71.83911
G1 X120.211 Y59.093 E71.8438
G1 X120.07 Y58.739 E71.86154
G1 X120.02 Y58.64 E71.8667
G1 X119.831 Y58.342 E71.88314
G1 X119.793 Y58.288 E71.88621
G1 X119.626 Y58.079 E71.89867
G1 X119.57 Y58.019 E71.90249
G1 X119.354 Y57.814 E71.91636
G1 X119.305 Y57.772 E71.91936
G1 X118.791 Y57.38 E71.94946
G1 X118.528 Y57.266 E71.96281
G1 X117.699 Y57.124 E72.00197
G1 X117.548 Y57.117 E72.00901
G1 X116.614 Y57.195 E72.05265
G1 X116.304 Y57.313 E72.0681
G1 X115.608 Y57.835 E72.10861
G1 X115.511 Y57.926 E72.1148
G1 X115.304 Y58.17 E72.1297
G1 X115.077 Y58.461 E72.14689
G1 X114.997 Y58.597 E72.15424
G0 F6000 X115.366 Y58.752
G1 F1200 X115.154 Y59.256 E72.1797
G1 X115.142 Y59.296 E72.18164
G1 X115.06 Y59.719 E72.2017
G1 X115.056 Y59.757 E72.20348
G1 X115.056 Y60.133 E72.22099
G1 X115.058 Y60.161 E72.2223
G1 X115.103 Y60.474 E72.23702
G1 X115.11 Y60.505 E72.2385
G1 X115.206 Y60.812 E72.25348
G1 X115.356 Y61.181 E72.27203
G1 X115.383 Y61.229 E72.27459
G1 X115.744 Y61.692 E72.30193
G1 X115.776 Y61.724 E72.30404
G1 X116.132 Y62.012 E72.32536
G1 X116.167 Y62.035 E72.32731
G1 X116.439 Y62.174 E72.34153
G1 X116.77 Y62.329 E72.35855
G1 X116.827 Y62.346 E72.36132
G1 X117.279 Y62.409 E72.38257
G1 X117.682 Y62.417 E72.40134
G1 X117.719 Y62.414 E72.40307
G1 X118.212 Y62.332 E72.42634
G1 X118.265 Y62.315 E72.42893
G1 X119.317 Y61.812 E72.48323
G1 X119.386 Y61.758 E72.48731
G1 X119.636 Y61.449 E72.50582
G1 X119.675 Y61.37 E72.50992
G1 X119.921 Y60.343 E72.55909
G1 X119.927 Y60.309 E72.5607
G1 X119.951 Y59.936 E72.57811
G1 X119.95 Y59.902 E72.57969
G1 X119.914 Y59.571 E72.59519
G1 X119.85 Y59.273 E72.60939
G1 X119.84 Y59.241 E72.61095
G1 X119.699 Y58.887 E72.62869
G1 X119.682 Y58.854 E72.63042
G1 X119.48 Y58.538 E72.64788
G1 X119.313 Y58.329 E72.66034
G1 X119.295 Y58.309 E72.66159
G1 X119.079 Y58.104 E72.67546
G1 X118.548 Y57.698 E72.70658
G1 X118.461 Y57.66 E72.711
G1 X117.632 Y57.518 E72.75017
G1 X117.581 Y57.516 E72.75254
G1 X116.647 Y57.594 E72.79619
G1 X116.544 Y57.633 E72.80132
G1 X115.848 Y58.155 E72.84183
G1 X115.816 Y58.185 E72.84387
G1 X115.619 Y58.416 E72.85801
G1 X115.392 Y58.707 E72.87519
G1 X115.366 Y58.752 E72.87761
G0 F6000 X114.284 Y58.358
G1 F1200 X114.469 Y58.033 E72.89502
G1 X114.695 Y57.717 E72.91311
G1 X114.926 Y57.458 E72.92927
G1 X115.183 Y57.219 E72.94562
G1 X115.459 Y57.008 E72.96179
G1 X115.772 Y56.815 E72.97892
G1 X116.088 Y56.662 E72.99526
G1 X116.468 Y56.525 E73.01407
G1 X116.784 Y56.445 E73.02925
G1 X117.136 Y56.391 E73.04583
G1 X117.499 Y56.374 E73.06276
G1 X117.849 Y56.391 E73.07907
G1 X118.209 Y56.444 E73.09602
G1 X118.546 Y56.529 E73.1122
G1 X118.889 Y56.653 E73.12918
G1 X119.227 Y56.815 E73.14664
G1 X119.541 Y57.008 E73.1638
G1 X119.817 Y57.22 E73.18
G1 X120.069 Y57.451 E73.19592
G1 X120.326 Y57.744 E73.21407
G1 X120.519 Y58.014 E73.22952
G1 X120.709 Y58.342 E73.24717
G1 X120.853 Y58.665 E73.26364
G1 X120.962 Y58.988 E73.27952
G1 X121.04 Y59.318 E73.2953
G1 X121.089 Y59.695 E73.31301
G1 X121.098 Y60.08 E73.33094
G1 X121.073 Y60.411 E73.3464
G1 X121.013 Y60.76 E73.36289
G1 X120.918 Y61.103 E73.37946
G1 X120.778 Y61.463 E73.39744
G1 X120.615 Y61.774 E73.41379
G1 X120.426 Y62.071 E73.43019
G1 X120.218 Y62.333 E73.44576
G1 X119.954 Y62.608 E73.46351
G1 X119.675 Y62.842 E73.48047
G1 X119.38 Y63.043 E73.49709
G1 X119.077 Y63.209 E73.51318
G1 X118.747 Y63.349 E73.52987
G1 X118.394 Y63.461 E73.54712
G1 X118.015 Y63.536 E73.56511
G1 X117.685 Y63.568 E73.58054
G1 X117.315 Y63.568 E73.59777
G1 X116.985 Y63.536 E73.61321
G1 X116.606 Y63.461 E73.6312
G1 X116.253 Y63.349 E73.64845
G1 X115.923 Y63.209 E73.66514
G1 X115.62 Y63.043 E73.68123
G1 X115.325 Y62.842 E73.69785
G1 X115.046 Y62.608 E73.7148
G1 X114.782 Y62.333 E73.73255
G1 X114.574 Y62.071 E73.74813
G1 X114.385 Y61.775 E73.76448
G1 X114.217 Y61.45 E73.78152
G1 X114.082 Y61.103 E73.79886
G1 X113.982 Y60.74 E73.81639
G1 X113.932 Y60.446 E73.83028
G1 X113.902 Y60.07 E73.84784
G1 X113.909 Y59.714 E73.86442
G1 X113.956 Y59.343 E73.88183
G1 X114.032 Y59.008 E73.89783
G1 X114.144 Y58.674 E73.91423
G1 X114.284 Y58.358 E73.93033
G0 F6000 X114.052 Y57.946
G1 F1200 X114.125 Y57.829 E73.93675
G1 X114.265 Y57.621 E73.94842
G1 X114.494 Y57.335 E73.96548
G1 X114.777 Y57.044 E73.98438
G1 X115.027 Y56.831 E73.99968
G1 X115.242 Y56.672 E74.01213
G1 X115.589 Y56.459 E74.03109
G1 X115.925 Y56.296 E74.04848
G1 X116.352 Y56.142 E74.06961
G1 X116.705 Y56.053 E74.08656
G1 X117.089 Y55.993 E74.10466
G1 X117.499 Y55.974 E74.12377
G1 X117.898 Y55.993 E74.14237
G1 X118.289 Y56.052 E74.16079
G1 X118.666 Y56.147 E74.17889
G1 X119.052 Y56.288 E74.19803
G1 X119.41 Y56.459 E74.2165
G1 X119.758 Y56.672 E74.2355
G1 X120.08 Y56.919 E74.2544
G1 X120.357 Y57.174 E74.27193
G1 X120.632 Y57.486 E74.29129
G1 X120.851 Y57.79 E74.30874
G1 X121.064 Y58.157 E74.3285
G1 X121.219 Y58.503 E74.34615
G1 X121.349 Y58.883 E74.36485
G1 X121.435 Y59.257 E74.38272
G1 X121.488 Y59.667 E74.40197
G1 X121.498 Y60.071 E74.42079
G1 X121.471 Y60.45 E74.43848
G1 X121.406 Y60.837 E74.45676
G1 X121.293 Y61.242 E74.47633
G1 X121.143 Y61.625 E74.49549
G1 X120.959 Y61.979 E74.51406
G1 X120.745 Y62.312 E74.5325
G1 X120.512 Y62.605 E74.54993
G1 X120.224 Y62.904 E74.56926
G1 X119.912 Y63.164 E74.58817
G1 X119.583 Y63.388 E74.6067
G1 X119.238 Y63.576 E74.625
G1 X118.884 Y63.725 E74.64288
G1 X118.658 Y63.801 E74.65399
G1 X118.314 Y63.889 E74.67052
G1 X117.907 Y63.952 E74.6897
G1 X117.5 Y63.973 E74.70867
G1 X117.093 Y63.952 E74.72765
G1 X116.686 Y63.889 E74.74683
G1 X116.342 Y63.802 E74.76335
G1 X115.943 Y63.658 E74.7831
G1 X115.586 Y63.486 E74.80155
G1 X115.239 Y63.273 E74.82051
G1 X114.924 Y63.034 E74.83892
G1 X114.651 Y62.78 E74.85629
G1 X114.372 Y62.469 E74.87574
G1 X114.143 Y62.146 E74.89418
G1 X113.944 Y61.804 E74.9126
