;FLAVOR:Marlin
;TIME:17093
;Filament used: 16.9088m
;Layer height: 0.28
;MINX:75
;MINY:37.32
;MINZ:0.28
;MAXX:160
;MAXY:159.32
;MAXZ:54.88
;Generated with Cura_SteamEngine 4.10.0
M140 S60
M105
M190 S60
M104 S200
M105
M109 S200
M82 ;absolute extrusion mode
; Ender 3 Custom Start G-code
G92 E0 ; Reset Extruder
G28 ; Home all axes
G1 Z2.0 F3000 ; Move Z Axis up little to prevent scratching of Heat Bed
G1 X0.1 Y20 Z0.3 F5000.0 ; Move to start position
G1 X0.1 Y200.0 Z0.3 F1500.0 E15 ; Draw the first line
G1 X0.4 Y200.0 Z0.3 F5000.0 ; Move to side a little
G1 X0.4 Y20 Z0.3 F1500.0 E30 ; Draw the second line
G92 E0 ; Reset Extruder
G1 Z2.0 F3000 ; Move Z Axis up little to prevent scratching of Heat Bed
G1 X5 Y20 Z0.3 F5000.0 ; Move over to prevent blob squish
G92 E0
G92 E0
G1 F2700 E-5
;LAYER_COUNT:196
;LAYER:0
M107
G0 F6000 X76.499 Y42.916 Z0.28
;TYPE:SKIRT
G1 F2700 E0
G1 F1200 X77.004 Y42.125 E0.0437
G1 X77.575 Y41.381 E0.08737
G1 X78.232 Y40.664 E0.13265
G1 X78.344 Y40.552 E0.14003
G1 X79.035 Y39.918 E0.18369
G1 X79.777 Y39.344 E0.22738
G1 X80.566 Y38.837 E0.27105
G1 X81.394 Y38.398 E0.31469
G1 X82.258 Y38.031 E0.3584
G1 X83.149 Y37.739 E0.40206
G1 X84.062 Y37.525 E0.44572
G1 X84.99 Y37.388 E0.4894
G1 X85.751 Y37.336 E0.52492
G1 X86.136 Y37.326 E0.54285
G1 X86.679 Y37.32 E0.56814
G1 X148.176 Y37.32 E3.4317
G1 X149.035 Y37.331 E3.4717
G1 X149.971 Y37.384 E3.51535
G1 X150.899 Y37.517 E3.55901
G1 X151.813 Y37.729 E3.6027
G1 X152.706 Y38.017 E3.64639
G1 X153.57 Y38.381 E3.69004
G1 X154.401 Y38.817 E3.73374
G1 X155.191 Y39.322 E3.7774
G1 X155.935 Y39.892 E3.82104
G1 X156.656 Y40.552 E3.86656
G1 X156.768 Y40.664 E3.87393
G1 X157.402 Y41.355 E3.9176
G1 X157.976 Y42.097 E3.96128
G1 X158.483 Y42.886 E4.00495
G1 X158.922 Y43.714 E4.04859
G1 X159.289 Y44.578 E4.0923
G1 X159.581 Y45.469 E4.13596
G1 X159.795 Y46.382 E4.17963
G1 X159.932 Y47.31 E4.22331
G1 X159.983 Y48.041 E4.25743
G1 X159.994 Y48.433 E4.27569
G1 X160 Y48.956 E4.30004
G1 X159.999 Y147.62 E8.89425
G1 X159.989 Y148.349 E8.9282
G1 X159.936 Y149.285 E8.97185
G1 X159.804 Y150.214 E9.01555
G1 X159.593 Y151.128 E9.05923
G1 X159.305 Y152.02 E9.10287
G1 X158.942 Y152.885 E9.14655
G1 X158.506 Y153.716 E9.19025
G1 X158.002 Y154.506 E9.23388
G1 X157.431 Y155.251 E9.27759
G1 X156.768 Y155.976 E9.32334
G1 X156.656 Y156.088 E9.33071
G1 X155.965 Y156.722 E9.37438
G1 X155.223 Y157.296 E9.41806
G1 X154.434 Y157.803 E9.46173
G1 X153.606 Y158.242 E9.50537
G1 X152.742 Y158.609 E9.54908
G1 X151.851 Y158.901 E9.59274
G1 X150.938 Y159.115 E9.63641
G1 X150.01 Y159.252 E9.68009
G1 X149.249 Y159.304 E9.71561
G1 X148.864 Y159.314 E9.73354
G1 X148.321 Y159.32 E9.75883
G1 X86.667 Y159.319 E12.62969
G1 X85.965 Y159.309 E12.66239
G1 X85.029 Y159.256 E12.70604
G1 X84.101 Y159.123 E12.74969
G1 X83.187 Y158.911 E12.79338
G1 X82.294 Y158.623 E12.83707
G1 X81.43 Y158.259 E12.88073
G1 X80.599 Y157.823 E12.92443
G1 X79.809 Y157.318 E12.96809
G1 X79.065 Y156.748 E13.01173
G1 X78.344 Y156.088 E13.05724
G1 X78.232 Y155.976 E13.06462
G1 X77.598 Y155.285 E13.10828
G1 X77.024 Y154.543 E13.15197
G1 X76.517 Y153.754 E13.19564
G1 X76.078 Y152.926 E13.23928
G1 X75.711 Y152.062 E13.28299
G1 X75.419 Y151.171 E13.32665
G1 X75.205 Y150.258 E13.37031
G1 X75.068 Y149.33 E13.41399
G1 X75.016 Y148.569 E13.44951
G1 X75.006 Y148.172 E13.468
G1 X75 Y147.598 E13.49473
G1 X75.001 Y48.963 E18.08759
G1 X75.011 Y48.281 E18.11935
G1 X75.065 Y47.344 E18.16305
G1 X75.198 Y46.416 E18.20671
G1 X75.41 Y45.502 E18.2504
G1 X75.699 Y44.61 E18.29406
G1 X76.063 Y43.746 E18.33771
G1 X76.499 Y42.916 E18.38137
G0 F6000 X76.896 Y43.029
G1 F1200 X77.4 Y42.259 E18.42422
G1 X77.969 Y41.535 E18.4671
G1 X78.515 Y40.947 E18.50446
G1 X78.627 Y40.835 E18.51184
G1 X79.305 Y40.213 E18.55468
G1 X80.035 Y39.652 E18.59755
G1 X80.811 Y39.156 E18.64044
G1 X81.627 Y38.73 E18.6833
G1 X82.477 Y38.376 E18.72617
G1 X83.355 Y38.098 E18.76906
G1 X84.253 Y37.896 E18.81192
G1 X85.166 Y37.773 E18.85481
G1 X85.764 Y37.736 E18.88271
G1 X86.14 Y37.726 E18.90023
G1 X86.679 Y37.72 E18.92533
G1 X148.176 Y37.72 E21.78888
G1 X149.029 Y37.731 E21.82861
G1 X149.948 Y37.784 E21.87147
G1 X150.859 Y37.917 E21.91434
G1 X151.755 Y38.128 E21.9572
G1 X152.63 Y38.416 E22.0001
G1 X153.476 Y38.779 E22.04296
G1 X154.287 Y39.214 E22.08582
G1 X155.058 Y39.718 E22.12871
G1 X155.782 Y40.286 E22.17156
G1 X156.373 Y40.835 E22.20912
G1 X156.485 Y40.947 E22.21649
G1 X157.107 Y41.625 E22.25934
G1 X157.668 Y42.355 E22.30221
G1 X158.164 Y43.131 E22.34509
G1 X158.59 Y43.947 E22.38795
G1 X158.944 Y44.797 E22.43083
G1 X159.222 Y45.675 E22.47371
G1 X159.424 Y46.573 E22.51657
G1 X159.547 Y47.486 E22.55947
G1 X159.583 Y48.055 E22.58602
G1 X159.594 Y48.438 E22.60386
G1 X159.6 Y48.956 E22.62798
G1 X159.599 Y147.614 E27.22191
G1 X159.589 Y148.343 E27.25586
G1 X159.536 Y149.263 E27.29877
G1 X159.404 Y150.174 E27.34163
G1 X159.194 Y151.07 E27.38448
G1 X158.906 Y151.944 E27.42733
G1 X158.543 Y152.791 E27.47024
G1 X158.109 Y153.602 E27.51307
G1 X157.605 Y154.373 E27.55596
G1 X157.037 Y155.098 E27.59885
G1 X156.485 Y155.693 E27.63664
G1 X156.373 Y155.805 E27.64402
G1 X155.695 Y156.427 E27.68686
G1 X154.965 Y156.988 E27.72973
G1 X154.189 Y157.484 E27.77261
G1 X153.373 Y157.91 E27.81548
G1 X152.523 Y158.264 E27.85835
G1 X151.645 Y158.542 E27.90124
G1 X150.747 Y158.744 E27.9441
G1 X149.834 Y158.867 E27.98699
G1 X149.236 Y158.904 E28.01489
G1 X148.86 Y158.914 E28.03241
G1 X148.321 Y158.92 E28.05751
G1 X86.673 Y158.919 E30.92809
G1 X85.971 Y158.909 E30.96079
G1 X85.052 Y158.856 E31.00365
G1 X84.141 Y158.723 E31.04652
G1 X83.245 Y158.512 E31.08938
G1 X82.37 Y158.224 E31.13228
G1 X81.524 Y157.861 E31.17514
G1 X80.713 Y157.426 E31.218
G1 X79.942 Y156.922 E31.26089
G1 X79.218 Y156.354 E31.30374
G1 X78.627 Y155.805 E31.3413
G1 X78.515 Y155.693 E31.34867
G1 X77.893 Y155.015 E31.39152
G1 X77.332 Y154.285 E31.43439
G1 X76.836 Y153.509 E31.47727
G1 X76.41 Y152.693 E31.52013
G1 X76.056 Y151.843 E31.56301
G1 X75.778 Y150.965 E31.60589
G1 X75.576 Y150.067 E31.64875
G1 X75.453 Y149.154 E31.69165
G1 X75.416 Y148.556 E31.71955
G1 X75.406 Y148.167 E31.73767
G1 X75.4 Y147.598 E31.76416
G1 X75.401 Y48.969 E36.35674
G1 X75.411 Y48.287 E36.3885
G1 X75.465 Y47.367 E36.43141
G1 X75.598 Y46.457 E36.47424
G1 X75.809 Y45.56 E36.51715
G1 X76.098 Y44.686 E36.56001
G1 X76.461 Y43.84 E36.60288
G1 X76.896 Y43.029 E36.64573
G0 F6000 X77.293 Y43.145
G1 F1200 X77.796 Y42.395 E36.68778
G1 X78.363 Y41.692 E36.72983
G1 X78.798 Y41.23 E36.75938
G1 X78.91 Y41.118 E36.76676
G1 X79.576 Y40.508 E36.80881
G1 X80.293 Y39.959 E36.85086
G1 X81.057 Y39.477 E36.89292
G1 X81.86 Y39.063 E36.93499
G1 X82.696 Y38.723 E36.97702
G1 X83.559 Y38.457 E37.01907
G1 X84.442 Y38.269 E37.0611
G1 X85.778 Y38.136 E37.12362
G1 X86.145 Y38.126 E37.14072
G1 X86.679 Y38.12 E37.16558
G1 X148.176 Y38.12 E40.02914
G1 X149.023 Y38.131 E40.06859
G1 X149.925 Y38.184 E40.11066
G1 X150.818 Y38.316 E40.15269
G1 X151.696 Y38.527 E40.19474
G1 X152.552 Y38.815 E40.23679
G1 X153.38 Y39.177 E40.27887
G1 X154.172 Y39.611 E40.32093
G1 X154.922 Y40.114 E40.36298
G1 X155.625 Y40.68 E40.405
G1 X156.09 Y41.118 E40.43475
G1 X156.202 Y41.23 E40.44212
G1 X156.812 Y41.896 E40.48418
G1 X157.361 Y42.613 E40.52623
G1 X157.843 Y43.377 E40.56829
G1 X158.257 Y44.18 E40.61036
G1 X158.597 Y45.016 E40.65238
G1 X158.863 Y45.879 E40.69443
G1 X159.051 Y46.762 E40.73647
G1 X159.183 Y48.07 E40.79768
G1 X159.194 Y48.444 E40.81511
G1 X159.2 Y48.956 E40.83895
G1 X159.199 Y147.609 E45.43265
G1 X159.189 Y148.338 E45.46659
G1 X159.137 Y149.239 E45.50862
G1 X159.005 Y150.133 E45.5507
G1 X158.794 Y151.011 E45.59275
G1 X158.507 Y151.867 E45.63479
G1 X158.145 Y152.695 E45.67686
G1 X157.712 Y153.487 E45.7189
G1 X157.21 Y154.238 E45.76096
G1 X156.643 Y154.941 E45.80301
G1 X156.202 Y155.41 E45.83299
G1 X156.09 Y155.522 E45.84036
G1 X155.424 Y156.132 E45.88242
G1 X154.707 Y156.681 E45.92447
G1 X153.943 Y157.163 E45.96653
G1 X153.14 Y157.577 E46.0086
G1 X152.304 Y157.917 E46.05062
G1 X151.441 Y158.183 E46.09267
G1 X150.558 Y158.371 E46.13471
G1 X149.222 Y158.504 E46.19723
G1 X148.855 Y158.514 E46.21432
G1 X148.321 Y158.52 E46.23919
G1 X86.679 Y158.519 E49.1095
G1 X85.977 Y158.509 E49.14219
G1 X85.075 Y158.456 E49.18427
G1 X84.182 Y158.324 E49.2263
G1 X83.304 Y158.113 E49.26835
G1 X82.448 Y157.825 E49.3104
G1 X81.62 Y157.463 E49.35248
G1 X80.828 Y157.029 E49.39453
G1 X80.078 Y156.526 E49.43658
G1 X79.375 Y155.96 E49.47861
G1 X78.91 Y155.522 E49.50835
G1 X78.798 Y155.41 E49.51573
G1 X78.188 Y154.744 E49.55778
G1 X77.639 Y154.027 E49.59983
G1 X77.157 Y153.263 E49.6419
G1 X76.743 Y152.46 E49.68396
G1 X76.403 Y151.624 E49.72599
G1 X76.137 Y150.761 E49.76804
G1 X75.949 Y149.878 E49.81008
G1 X75.816 Y148.542 E49.87259
G1 X75.806 Y148.163 E49.89025
G1 X75.8 Y147.598 E49.91656
G1 X75.801 Y48.974 E54.5089
G1 X75.811 Y48.292 E54.54066
G1 X75.864 Y47.391 E54.58269
G1 X75.997 Y46.498 E54.62473
G1 X76.208 Y45.62 E54.66678
G1 X76.496 Y44.764 E54.70883
G1 X76.859 Y43.937 E54.75089
G1 X77.293 Y43.145 E54.79294
G1 F2700 E49.79294
G0 F6000 X144.826 Y52.12
G1 F2700 E54.79294
G1 F1200 X145.2 Y52.12 E54.81036
G1 X145.2 Y52.59 E54.83224
G1 X144.826 Y52.12 E54.86021
G0 F6000 X144.534 Y52.394
G1 F1200 X144.275 Y52.099 E54.87849
G1 X143.906 Y51.72 E54.90312
G1 X145.6 Y51.72 E54.982
G1 X145.6 Y53.961 E55.08635
G1 X145.502 Y53.78 E55.09593
G1 X145.343 Y53.516 E55.11028
G1 X145.078 Y53.107 E55.13298
G1 X144.913 Y52.873 E55.14631
G1 X144.534 Y52.394 E55.17475
G0 F6000 X144.221 Y52.643
G1 F1200 X143.988 Y52.378 E55.19118
G1 X143.6 Y51.98 E55.21706
G1 X143.414 Y51.804 E55.22899
G1 X143.339 Y51.739 E55.23361
G1 X142.916 Y51.385 E55.25929
G1 X142.825 Y51.32 E55.2645
G1 X146 Y51.32 E55.41234
G1 X146 Y56.054 E55.63278
G1 X145.915 Y55.757 E55.64716
G1 X145.743 Y55.246 E55.67227
G1 X145.631 Y54.962 E55.68648
G1 X145.423 Y54.498 E55.71016
G1 X145.31 Y54.264 E55.72226
G1 X145.151 Y53.971 E55.73778
G1 X145.01 Y53.738 E55.75046
G1 X144.742 Y53.324 E55.77343
G1 X144.593 Y53.113 E55.78546
G1 X144.221 Y52.643 E55.81337
G0 F6000 X143.908 Y52.892
G1 F1200 X143.702 Y52.657 E55.82792
G1 X143.314 Y52.259 E55.8538
G1 X143.083 Y52.046 E55.86843
G1 X142.66 Y51.692 E55.89412
G1 X142.42 Y51.521 E55.90784
G1 X142.006 Y51.233 E55.93132
G1 X141.755 Y51.08 E55.94501
G1 X141.46 Y50.92 E55.96064
G1 X146.4 Y50.92 E56.19066
G1 X146.4 Y145.72 E60.60495
G1 X141.476 Y145.72 E60.83423
G1 X141.664 Y145.614 E60.84428
G1 X142.117 Y145.337 E60.869
G1 X142.337 Y145.187 E60.8814
G1 X142.813 Y144.826 E60.90922
G1 X143.007 Y144.662 E60.92105
G1 X143.404 Y144.293 E60.94629
G1 X143.566 Y144.13 E60.95699
G1 X143.745 Y143.937 E60.96925
G1 X143.884 Y143.779 E60.97904
G1 X144.259 Y143.31 E61.00701
G1 X144.435 Y143.047 E61.02174
G1 X144.685 Y142.667 E61.04292
G1 X144.836 Y142.409 E61.05684
G1 X145.086 Y141.924 E61.08225
G1 X145.213 Y141.643 E61.09661
G1 X145.411 Y141.142 E61.12169
G1 X145.503 Y140.866 E61.13524
G1 X145.653 Y140.334 E61.16098
G1 X145.723 Y140.031 E61.17546
G1 X145.811 Y139.531 E61.1991
G1 X145.866 Y139.062 E61.22109
G1 X145.88 Y138.908 E61.22829
G1 X145.895 Y138.595 E61.24288
G1 X145.894 Y138.263 E61.25834
G1 X145.91 Y137.989 E61.27112
G1 X145.876 Y137.706 E61.28439
G1 X145.86 Y137.539 E61.2922
G1 X145.794 Y137.007 E61.31716
G1 X145.749 Y136.749 E61.32936
G1 X145.622 Y136.188 E61.35614
G1 X145.536 Y135.885 E61.37081
G1 X145.364 Y135.374 E61.39591
G1 X145.267 Y135.127 E61.40827
G1 X145.063 Y134.671 E61.43153
G1 X144.958 Y134.455 E61.44272
G1 X144.799 Y134.162 E61.45824
G1 X144.673 Y133.954 E61.46956
G1 X144.406 Y133.541 E61.49246
G1 X144.229 Y133.296 E61.50654
G1 X143.908 Y132.892 E61.53056
G1 X143.702 Y132.657 E61.54511
G1 X143.314 Y132.259 E61.571
G1 X143.083 Y132.046 E61.58563
G1 X142.66 Y131.692 E61.61131
G1 X142.42 Y131.521 E61.62503
G1 X142.006 Y131.233 E61.64852
G1 X141.755 Y131.08 E61.6622
G1 X141.188 Y130.774 E61.69221
G1 X141.018 Y130.695 E61.70093
G1 X140.532 Y130.489 E61.72551
G1 X140.266 Y130.389 E61.73875
G1 X139.723 Y130.22 E61.76523
G1 X139.47 Y130.155 E61.77739
G1 X138.863 Y130.032 E61.80623
G1 X138.609 Y129.995 E61.81818
G1 X138.053 Y129.94 E61.8442
G1 X137.797 Y129.927 E61.85613
G1 X137.203 Y129.927 E61.88379
G1 X136.947 Y129.94 E61.89573
G1 X136.391 Y129.995 E61.92174
G1 X136.137 Y130.032 E61.9337
G1 X135.481 Y130.166 E61.96487
G1 X135.277 Y130.22 E61.9747
G1 X134.734 Y130.389 E62.00118
G1 X134.454 Y130.495 E62.01512
G1 X133.982 Y130.695 E62.03899
G1 X133.711 Y130.827 E62.05303
G1 X133.2 Y131.105 E62.08011
G1 X132.994 Y131.233 E62.09141
G1 X132.578 Y131.518 E62.11489
G1 X132.34 Y131.692 E62.12862
G1 X131.852 Y132.102 E62.1583
G1 X131.686 Y132.259 E62.16893
G1 X131.298 Y132.657 E62.19482
G1 X131.092 Y132.892 E62.20937
G1 X130.716 Y133.367 E62.23758
G1 X130.591 Y133.544 E62.24767
G1 X130.263 Y134.055 E62.27594
G1 X130.161 Y134.237 E62.28566
G1 X129.912 Y134.722 E62.31104
G1 X129.785 Y135.004 E62.32544
G1 X129.588 Y135.506 E62.35055
G1 X129.489 Y135.799 E62.36496
G1 X129.343 Y136.318 E62.39006
G1 X129.278 Y136.611 E62.40404
G1 X129.185 Y137.14 E62.42905
G1 X129.148 Y137.443 E62.44326
G1 X129.109 Y137.959 E62.46735
G1 X129.103 Y138.268 E62.48175
G1 X129.116 Y138.806 E62.5068
G1 X129.14 Y139.119 E62.52142
G1 X129.206 Y139.643 E62.54601
G1 X129.251 Y139.896 E62.55798
G1 X129.375 Y140.444 E62.58414
G1 X129.443 Y140.692 E62.59612
G1 X129.632 Y141.256 E62.62381
G1 X129.729 Y141.504 E62.63621
G1 X129.921 Y141.933 E62.6581
G1 X130.039 Y142.179 E62.6708
G1 X130.212 Y142.497 E62.68766
G1 X130.359 Y142.74 E62.70088
G1 X130.519 Y142.991 E62.71475
G1 X130.853 Y143.457 E62.74144
G1 X131.053 Y143.692 E62.75581
G1 X131.373 Y144.063 E62.77862
G1 X131.535 Y144.234 E62.78959
G1 X131.759 Y144.452 E62.80415
G1 X131.895 Y144.575 E62.81269
G1 X132.337 Y144.946 E62.83956
G1 X132.58 Y145.12 E62.85347
G1 X132.994 Y145.408 E62.87696
G1 X133.245 Y145.561 E62.89064
G1 X133.538 Y145.72 E62.90617
G1 X101.476 Y145.72 E64.39911
G1 X101.664 Y145.614 E64.40916
G1 X102.117 Y145.337 E64.43388
G1 X102.337 Y145.187 E64.44628
G1 X102.813 Y144.826 E64.4741
G1 X103.007 Y144.662 E64.48593
G1 X103.404 Y144.293 E64.51117
G1 X103.566 Y144.13 E64.52187
G1 X103.745 Y143.937 E64.53412
G1 X103.884 Y143.779 E64.54392
G1 X104.259 Y143.31 E64.57188
G1 X104.435 Y143.047 E64.58662
G1 X104.685 Y142.667 E64.6078
G1 X104.836 Y142.409 E64.62172
G1 X105.086 Y141.924 E64.64713
G1 X105.213 Y141.643 E64.66149
G1 X105.411 Y141.142 E64.68657
G1 X105.503 Y140.866 E64.70012
G1 X105.653 Y140.334 E64.72586
G1 X105.723 Y140.031 E64.74034
G1 X105.811 Y139.531 E64.76398
G1 X105.866 Y139.062 E64.78596
G1 X105.88 Y138.908 E64.79316
G1 X105.895 Y138.595 E64.80776
G1 X105.894 Y138.263 E64.82322
G1 X105.91 Y137.989 E64.836
G1 X105.876 Y137.706 E64.84927
G1 X105.86 Y137.539 E64.85708
G1 X105.794 Y137.007 E64.88204
G1 X105.749 Y136.749 E64.89424
G1 X105.622 Y136.188 E64.92102
G1 X105.536 Y135.885 E64.93569
G1 X105.364 Y135.374 E64.96079
G1 X105.267 Y135.127 E64.97315
G1 X105.063 Y134.671 E64.99641
G1 X104.958 Y134.455 E65.00759
G1 X104.799 Y134.162 E65.02312
G1 X104.673 Y133.954 E65.03444
G1 X104.406 Y133.541 E65.05734
G1 X104.229 Y133.296 E65.07141
G1 X103.908 Y132.892 E65.09544
G1 X103.702 Y132.657 E65.10999
G1 X103.314 Y132.259 E65.13587
G1 X103.083 Y132.046 E65.15051
G1 X102.66 Y131.692 E65.17619
G1 X102.42 Y131.521 E65.18991
G1 X102.006 Y131.233 E65.21339
G1 X101.755 Y131.08 E65.22708
G1 X101.188 Y130.774 E65.25708
G1 X101.018 Y130.695 E65.26581
G1 X100.532 Y130.489 E65.29039
G1 X100.266 Y130.389 E65.30362
G1 X99.723 Y130.22 E65.33011
G1 X99.47 Y130.155 E65.34227
G1 X98.863 Y130.032 E65.37111
