;FLAVOR:Marlin
;TIME:2266
;Filament used: 1.91024m
;Layer height: 0.28
;MINX:56.5
;MINY:43.019
;MINZ:0.28
;MAXX:178.5
;MAXY:105.019
;MAXZ:5.04
;Generated with Cura_SteamEngine 4.10.0
M140 S60
M105
M190 S60
M104 S200
M105
M109 S200
M82 ;absolute extrusion mode
; Ender 3 Custom Start G-code
G92 E0 ; Reset Extruder
G28 ; Home all axes
G1 Z2.0 F3000 ; Move Z Axis up little to prevent scratching of Heat Bed
G1 X0.1 Y20 Z0.3 F5000.0 ; Move to start position
G1 X0.1 Y200.0 Z0.3 F1500.0 E15 ; Draw the first line
G1 X0.4 Y200.0 Z0.3 F5000.0 ; Move to side a little
G1 X0.4 Y20 Z0.3 F1500.0 E30 ; Draw the second line
G92 E0 ; Reset Extruder
G1 Z2.0 F3000 ; Move Z Axis up little to prevent scratching of Heat Bed
G1 X5 Y20 Z0.3 F5000.0 ; Move over to prevent blob squish
G92 E0
G92 E0
G1 F2700 E-5
;LAYER_COUNT:18
;LAYER:0
M107
G0 F6000 X59.066 Y46.977 Z0.28
;TYPE:SKIRT
G1 F2700 E0
G1 F1200 X59.698 Y46.283 E0.04371
G1 X60.386 Y45.646 E0.08737
G1 X61.126 Y45.07 E0.13103
G1 X61.912 Y44.558 E0.17471
G1 X62.739 Y44.116 E0.21838
G1 X63.601 Y43.746 E0.26205
G1 X64.491 Y43.45 E0.30573
G1 X65.403 Y43.232 E0.34939
G1 X66.33 Y43.091 E0.39305
G1 X67.201 Y43.032 E0.4337
G1 X67.522 Y43.023 E0.44866
G1 X67.83 Y43.019 E0.463
G1 X166.793 Y43.019 E5.07113
G1 X167.649 Y43.03 E5.11099
G1 X168.585 Y43.084 E5.15465
G1 X169.513 Y43.216 E5.1983
G1 X170.427 Y43.428 E5.24199
G1 X171.319 Y43.717 E5.28565
G1 X172.184 Y44.08 E5.32933
G1 X173.014 Y44.516 E5.37298
G1 X173.805 Y45.021 E5.41668
G1 X174.549 Y45.592 E5.46035
G1 X175.242 Y46.224 E5.50403
G1 X175.879 Y46.912 E5.54769
G1 X176.454 Y47.653 E5.59136
G1 X176.965 Y48.439 E5.63501
G1 X177.407 Y49.267 E5.67872
G1 X177.776 Y50.129 E5.72238
G1 X178.071 Y51.019 E5.76604
G1 X178.289 Y51.931 E5.8097
G1 X178.429 Y52.859 E5.8534
G1 X178.487 Y53.72 E5.89358
G1 X178.496 Y54.04 E5.90849
G1 X178.5 Y54.349 E5.92288
G1 X178.499 Y93.419 E7.74214
G1 X178.49 Y94.146 E7.776
G1 X178.439 Y95.083 E7.81969
G1 X178.307 Y96.011 E7.86334
G1 X178.098 Y96.925 E7.907
G1 X177.811 Y97.818 E7.95067
G1 X177.449 Y98.684 E7.99438
G1 X177.015 Y99.515 E8.03803
G1 X176.511 Y100.306 E8.08171
G1 X175.942 Y101.051 E8.12536
G1 X175.311 Y101.746 E8.16907
G1 X174.624 Y102.384 E8.21273
G1 X173.885 Y102.961 E8.25638
G1 X173.099 Y103.473 E8.30006
G1 X172.273 Y103.916 E8.34371
G1 X171.411 Y104.288 E8.38742
G1 X170.522 Y104.584 E8.43105
G1 X169.61 Y104.804 E8.47474
G1 X168.683 Y104.945 E8.5184
G1 X167.799 Y105.006 E8.55966
G1 X167.478 Y105.015 E8.57461
G1 X167.17 Y105.019 E8.58896
G1 X68.065 Y105.018 E13.2037
G1 X67.367 Y105.009 E13.23621
G1 X66.431 Y104.957 E13.27986
G1 X65.502 Y104.825 E13.32355
G1 X64.588 Y104.615 E13.36722
G1 X63.695 Y104.328 E13.41089
G1 X62.83 Y103.965 E13.45458
G1 X61.999 Y103.531 E13.49823
G1 X61.208 Y103.027 E13.5419
G1 X60.463 Y102.457 E13.58558
G1 X59.769 Y101.826 E13.62926
G1 X59.132 Y101.139 E13.67288
G1 X58.555 Y100.399 E13.71658
G1 X58.043 Y99.613 E13.76026
G1 X57.6 Y98.786 E13.80394
G1 X57.229 Y97.925 E13.8476
G1 X56.933 Y97.035 E13.89127
G1 X56.714 Y96.123 E13.93495
G1 X56.573 Y95.196 E13.97861
G1 X56.513 Y94.307 E14.0201
G1 X56.504 Y93.974 E14.03561
G1 X56.5 Y93.677 E14.04944
G1 X56.501 Y54.544 E15.87164
G1 X56.51 Y53.879 E15.9026
G1 X56.563 Y52.943 E15.94626
G1 X56.695 Y52.014 E15.98995
G1 X56.906 Y51.1 E16.03363
G1 X57.194 Y50.208 E16.07728
G1 X57.557 Y49.343 E16.12096
G1 X57.992 Y48.512 E16.16463
G1 X58.496 Y47.722 E16.20827
G1 X59.066 Y46.977 E16.25195
G0 F6000 X59.461 Y47.13
G1 F1200 X60.089 Y46.458 E16.29477
G1 X60.774 Y45.842 E16.33767
G1 X61.51 Y45.289 E16.38054
G1 X62.291 Y44.801 E16.42342
G1 X63.111 Y44.383 E16.46628
G1 X63.965 Y44.038 E16.50917
G1 X64.845 Y43.768 E16.55203
G1 X65.745 Y43.576 E16.59488
G1 X66.659 Y43.462 E16.63777
G1 X67.212 Y43.432 E16.66356
G1 X67.533 Y43.423 E16.67851
G1 X67.83 Y43.419 E16.69234
G1 X166.793 Y43.419 E21.30047
G1 X167.643 Y43.43 E21.34005
G1 X168.562 Y43.483 E21.38292
G1 X169.473 Y43.616 E21.42579
G1 X170.369 Y43.827 E21.46865
G1 X171.243 Y44.115 E21.5115
G1 X172.09 Y44.478 E21.55441
G1 X172.901 Y44.913 E21.59726
G1 X173.671 Y45.417 E21.64011
G1 X174.395 Y45.986 E21.68299
G1 X175.067 Y46.616 E21.72588
G1 X175.682 Y47.301 E21.76875
G1 X176.235 Y48.037 E21.81162
G1 X176.722 Y48.818 E21.85447
G1 X177.139 Y49.639 E21.89735
G1 X177.484 Y50.493 E21.94024
G1 X177.753 Y51.373 E21.98309
G1 X177.945 Y52.274 E22.02598
G1 X178.058 Y53.187 E22.06882
G1 X178.087 Y53.731 E22.09419
G1 X178.096 Y54.051 E22.1091
G1 X178.1 Y54.349 E22.12297
G1 X178.099 Y93.414 E23.942
G1 X178.09 Y94.141 E23.97586
G1 X178.039 Y95.06 E24.01872
G1 X177.908 Y95.972 E24.06162
G1 X177.698 Y96.868 E24.10447
G1 X177.412 Y97.743 E24.14734
G1 X177.051 Y98.59 E24.19021
G1 X176.617 Y99.402 E24.23308
G1 X176.115 Y100.174 E24.27596
G1 X175.547 Y100.899 E24.31884
G1 X174.919 Y101.572 E24.36171
G1 X174.235 Y102.188 E24.40457
G1 X173.5 Y102.742 E24.44743
G1 X172.72 Y103.231 E24.49029
G1 X171.9 Y103.65 E24.53317
G1 X171.047 Y103.996 E24.57604
G1 X170.167 Y104.267 E24.61891
G1 X169.267 Y104.46 E24.66177
G1 X168.353 Y104.575 E24.70467
G1 X167.788 Y104.606 E24.73101
G1 X167.467 Y104.615 E24.74597
G1 X167.17 Y104.619 E24.7598
G1 X68.07 Y104.618 E29.37431
G1 X67.372 Y104.609 E29.40681
G1 X66.453 Y104.557 E29.44968
G1 X65.542 Y104.426 E29.49253
G1 X64.646 Y104.216 E29.53538
G1 X63.771 Y103.929 E29.57826
G1 X62.924 Y103.567 E29.62115
G1 X62.112 Y103.133 E29.66403
G1 X61.341 Y102.631 E29.70687
G1 X60.616 Y102.063 E29.74975
G1 X59.943 Y101.434 E29.79265
G1 X59.328 Y100.75 E29.83548
G1 X58.774 Y100.015 E29.87833
G1 X58.286 Y99.234 E29.92122
G1 X57.867 Y98.414 E29.9641
G1 X57.521 Y97.561 E30.00696
G1 X57.251 Y96.681 E30.04982
G1 X57.058 Y95.78 E30.09273
G1 X56.944 Y94.867 E30.13557
G1 X56.913 Y94.296 E30.1622
G1 X56.904 Y93.963 E30.17771
G1 X56.9 Y93.677 E30.19103
G1 X56.901 Y54.55 E32.01294
G1 X56.91 Y53.885 E32.04391
G1 X56.962 Y52.965 E32.08682
G1 X57.094 Y52.054 E32.12968
G1 X57.305 Y51.158 E32.17254
G1 X57.592 Y50.283 E32.21542
G1 X57.955 Y49.437 E32.25829
G1 X58.389 Y48.625 E32.30116
G1 X58.892 Y47.854 E32.34403
G1 X59.461 Y47.13 E32.38691
G0 F6000 X59.855 Y47.286
G1 F1200 X60.481 Y46.636 E32.42893
G1 X61.162 Y46.043 E32.47097
G1 X61.894 Y45.513 E32.51306
G1 X62.669 Y45.05 E32.55509
G1 X63.482 Y44.657 E32.59714
G1 X64.327 Y44.337 E32.63921
G1 X65.196 Y44.094 E32.68123
G1 X66.084 Y43.928 E32.7233
G1 X67.223 Y43.832 E32.77652
G1 X67.544 Y43.823 E32.79147
G1 X67.83 Y43.819 E32.80479
G1 X166.793 Y43.819 E37.41292
G1 X167.637 Y43.83 E37.45223
G1 X168.539 Y43.883 E37.4943
G1 X169.432 Y44.015 E37.53633
G1 X170.31 Y44.226 E37.57838
G1 X171.166 Y44.514 E37.62044
G1 X171.993 Y44.876 E37.66247
G1 X172.785 Y45.311 E37.70455
G1 X173.536 Y45.813 E37.74661
G1 X174.239 Y46.38 E37.78867
G1 X174.889 Y47.007 E37.83072
G1 X175.481 Y47.689 E37.87277
G1 X176.011 Y48.42 E37.91481
G1 X176.473 Y49.196 E37.95687
G1 X176.866 Y50.009 E37.99891
G1 X177.184 Y50.854 E38.04096
G1 X177.427 Y51.724 E38.08302
G1 X177.592 Y52.612 E38.12507
G1 X177.687 Y53.742 E38.17788
G1 X177.696 Y54.062 E38.19278
G1 X177.7 Y54.349 E38.20615
G1 X177.699 Y93.409 E40.02495
G1 X177.69 Y94.136 E40.0588
G1 X177.639 Y95.038 E40.10087
G1 X177.508 Y95.932 E40.14294
G1 X177.299 Y96.81 E40.18497
G1 X177.013 Y97.667 E40.22704
G1 X176.652 Y98.495 E40.2691
G1 X176.22 Y99.287 E40.3111
G1 X175.719 Y100.039 E40.35318
G1 X175.153 Y100.743 E40.39524
G1 X174.528 Y101.394 E40.43726
G1 X173.847 Y101.988 E40.47934
G1 X173.116 Y102.519 E40.52141
G1 X172.342 Y102.983 E40.56343
G1 X171.529 Y103.377 E40.6055
G1 X170.685 Y103.697 E40.64753
G1 X169.815 Y103.942 E40.68962
G1 X168.928 Y104.108 E40.73164
G1 X167.777 Y104.206 E40.78543
G1 X167.456 Y104.215 E40.80038
G1 X167.17 Y104.219 E40.8137
G1 X68.075 Y104.218 E45.42798
G1 X67.377 Y104.209 E45.46048
G1 X66.476 Y104.158 E45.5025
G1 X65.582 Y104.026 E45.54458
G1 X64.704 Y103.817 E45.58661
G1 X63.847 Y103.53 E45.62869
G1 X63.02 Y103.169 E45.67071
G1 X62.227 Y102.736 E45.71278
G1 X61.476 Y102.235 E45.75482
G1 X60.772 Y101.669 E45.79688
G1 X60.121 Y101.043 E45.83894
G1 X59.528 Y100.362 E45.88098
G1 X58.998 Y99.631 E45.92303
G1 X58.534 Y98.856 E45.96509
G1 X58.14 Y98.043 E46.00715
G1 X57.82 Y97.199 E46.04918
G1 X57.576 Y96.329 E46.09126
G1 X57.41 Y95.441 E46.13332
G1 X57.313 Y94.286 E46.1873
G1 X57.304 Y93.953 E46.20281
G1 X57.3 Y93.677 E46.21566
G1 X57.301 Y54.555 E48.03734
G1 X57.31 Y53.89 E48.06831
G1 X57.362 Y52.988 E48.11038
G1 X57.494 Y52.095 E48.15242
G1 X57.704 Y51.217 E48.19445
G1 X57.991 Y50.36 E48.23654
G1 X58.353 Y49.533 E48.27857
G1 X58.786 Y48.741 E48.3206
G1 X59.288 Y47.99 E48.36267
G1 X59.855 Y47.286 E48.40476
G1 F2700 E43.40476
;MESH:LCD1602Plate-Body.stl
G0 F6000 X79.939 Y88.528
G0 X79.346 Y87.192
G0 X78.529 Y88.501
G0 X78.419 Y88.855
G0 X78.386 Y89.301
G0 X78.571 Y90.032
G0 X78.951 Y90.558
G0 X79.275 Y90.804
G0 X80.401 Y91.24
;TYPE:WALL-INNER
G1 F2700 E48.40476
G1 F1200 X80.787 Y91.174 E48.42299
G1 X81.088 Y91.064 E48.43791
G1 X81.428 Y90.87 E48.45614
G1 X81.736 Y90.597 E48.47531
G1 X81.983 Y90.272 E48.49431
G1 X82.186 Y89.824 E48.51722
G1 X82.267 Y89.423 E48.53627
G1 X82.267 Y89.015 E48.55526
G1 X82.186 Y88.616 E48.57422
G1 X81.983 Y88.166 E48.59721
G1 X81.736 Y87.841 E48.61622
G1 X81.431 Y87.571 E48.63519
G1 X81.08 Y87.37 E48.65402
G1 X80.695 Y87.241 E48.67293
G1 X80.207 Y87.193 E48.69576
G1 X79.801 Y87.243 E48.71481
G1 X79.424 Y87.367 E48.73329
G1 X79.078 Y87.565 E48.75185
G1 X78.829 Y87.774 E48.76699
G1 X78.528 Y88.148 E48.78934
G1 X78.38 Y88.44 E48.80459
G1 X78.261 Y88.824 E48.8233
G1 X78.223 Y89.309 E48.84596
G1 X78.307 Y89.799 E48.86911
G1 X78.426 Y90.104 E48.88435
G1 X78.626 Y90.431 E48.9022
G1 X78.841 Y90.676 E48.91738
G1 X79.229 Y90.971 E48.94007
G1 X79.605 Y91.141 E48.95929
G1 X80.002 Y91.231 E48.97824
G1 X80.401 Y91.24 E48.99683
G0 F6000 X80.372 Y90.839
;TYPE:WALL-OUTER
G1 F1200 X80.684 Y90.786 E49.01156
G1 X80.919 Y90.7 E49.02322
G1 X81.194 Y90.543 E49.03796
G1 X81.441 Y90.324 E49.05333
G1 X81.637 Y90.066 E49.06842
G1 X81.803 Y89.7 E49.08713
G1 X81.867 Y89.383 E49.10219
G1 X81.867 Y89.055 E49.11746
G1 X81.803 Y88.74 E49.13243
G1 X81.637 Y88.372 E49.15123
G1 X81.441 Y88.114 E49.16632
G1 X81.197 Y87.898 E49.18149
G1 X80.916 Y87.737 E49.19657
G1 X80.611 Y87.635 E49.21155
G1 X80.212 Y87.595 E49.23022
G1 X79.889 Y87.635 E49.24537
G1 X79.587 Y87.734 E49.26017
G1 X79.308 Y87.894 E49.27515
G1 X79.116 Y88.055 E49.28682
G1 X78.866 Y88.366 E49.3054
G1 X78.752 Y88.591 E49.31714
G1 X78.656 Y88.9 E49.33221
G1 X78.626 Y89.291 E49.35047
G1 X78.694 Y89.691 E49.36936
G1 X78.786 Y89.926 E49.38111
G1 X78.949 Y90.193 E49.39568
G1 X79.115 Y90.382 E49.40739
G1 X79.435 Y90.625 E49.4261
G1 X79.733 Y90.76 E49.44134
G1 X80.051 Y90.832 E49.45652
G1 X80.372 Y90.839 E49.47147
G0 F6000 X80.404 Y91.277
G1 F2700 E44.47147
G0 F6000 X81.334 Y90.738
G0 X81.844 Y90.189
G0 X82.033 Y89.774
G0 X82.106 Y89.032
G0 X82.033 Y88.666
G0 X81.199 Y87.218
G0 X81.4 Y86.869
;TYPE:WALL-INNER
G1 F2700 E49.47147
G1 F1200 X157.6 Y86.869 E53.01966
G1 X157.6 Y61.169 E54.21636
G1 X81.4 Y61.169 E57.76455
G1 X81.4 Y86.869 E58.96125
G0 F6000 X81.8 Y86.469
;TYPE:WALL-OUTER
G1 F1200 X157.2 Y86.469 E62.47219
G1 X157.2 Y61.569 E63.63164
G1 X81.8 Y61.569 E67.14258
G1 X81.8 Y86.469 E68.30203
G1 F2700 E63.30203
G0 F6000 X81.5 Y86.469
G0 X81.21 Y76.335
G0 X82.665 Y76.335
G0 X72.256 Y74.795
G0 X73.274 Y75.841
G0 X71.911 Y76.335
;TYPE:WALL-INNER
G1 F2700 E68.30203
G1 F1200 X72.25 Y76.247 E68.31833
G1 X72.577 Y76.108 E68.33488
G1 X72.865 Y75.934 E68.35055
G1 X73.14 Y75.704 E68.36724
G1 X73.375 Y75.439 E68.38373
G1 X73.567 Y75.139 E68.40032
G1 X73.744 Y74.72 E68.4215
G1 X73.825 Y74.366 E68.43841
G1 X73.85 Y73.916 E68.45939
G1 X73.804 Y73.552 E68.47648
G1 X73.709 Y73.216 E68.49274
G1 X73.563 Y72.891 E68.50933
G1 X73.312 Y72.519 E68.53022
G1 X73.054 Y72.255 E68.54741
G1 X72.775 Y72.043 E68.56373
G1 X72.468 Y71.876 E68.58
G1 X72.136 Y71.756 E68.59644
G1 X71.798 Y71.688 E68.61249
G1 X71.554 Y71.669 E68.62389
G1 X71.207 Y71.687 E68.64007
G1 X70.864 Y71.756 E68.65636
G1 X70.532 Y71.876 E68.6728
G1 X70.226 Y72.043 E68.68903
G1 X69.952 Y72.249 E68.70499
G1 X69.698 Y72.509 E68.72192
G1 X69.494 Y72.794 E68.73824
G1 X69.332 Y73.106 E68.75461
G1 X69.221 Y73.44 E68.771
G1 X69.161 Y73.783 E68.78721
G1 X69.15 Y74.127 E68.80324
G1 X69.196 Y74.486 E68.82009
G1 X69.291 Y74.824 E68.83644
G1 X69.439 Y75.149 E68.85307
G1 X69.625 Y75.439 E68.86911
G1 X69.859 Y75.703 E68.88554
G1 X70.122 Y75.925 E68.90156
G1 X70.526 Y76.16 E68.92333
G1 X70.863 Y76.283 E68.94003
G1 X71.211 Y76.353 E68.95656
G1 X71.56 Y76.37 E68.97283
G1 X71.911 Y76.335 E68.98926
G0 F6000 X71.84 Y75.94
;TYPE:WALL-OUTER
G1 F1200 X72.121 Y75.867 E69.00277
G1 X72.394 Y75.751 E69.01659
G1 X72.632 Y75.607 E69.02954
G1 X72.861 Y75.416 E69.04342
G1 X73.055 Y75.197 E69.05705
G1 X73.212 Y74.952 E69.0706
G1 X73.362 Y74.596 E69.08859
G1 X73.428 Y74.31 E69.10225
G1 X73.449 Y73.93 E69.11997
G1 X73.411 Y73.632 E69.13396
G1 X73.332 Y73.353 E69.14747
G1 X73.212 Y73.086 E69.1611
G1 X73.001 Y72.773 E69.17867
G1 X72.789 Y72.556 E69.1928
G1 X72.557 Y72.38 E69.20636
G1 X72.303 Y72.242 E69.21982
G1 X72.028 Y72.142 E69.23344
G1 X71.743 Y72.085 E69.24698
G1 X71.549 Y72.07 E69.25604
G1 X71.257 Y72.085 E69.26965
G1 X70.972 Y72.142 E69.28319
G1 X70.697 Y72.242 E69.29681
G1 X70.443 Y72.38 E69.31027
G1 X70.217 Y72.55 E69.32344
G1 X70.005 Y72.767 E69.33757
G1 X69.836 Y73.003 E69.35108
G1 X69.702 Y73.262 E69.36466
G1 X69.61 Y73.538 E69.37821
G1 X69.56 Y73.824 E69.39173
G1 X69.551 Y74.108 E69.40496
G1 X69.589 Y74.406 E69.41895
G1 X69.668 Y74.686 E69.43249
G1 X69.791 Y74.957 E69.44635
G1 X69.945 Y75.197 E69.45963
G1 X70.139 Y75.416 E69.47325
G1 X70.353 Y75.597 E69.4863
G1 X70.696 Y75.796 E69.50477
G1 X70.972 Y75.897 E69.51845
G1 X71.26 Y75.955 E69.53213
G1 X71.55 Y75.969 E69.54565
G1 X71.84 Y75.94 E69.55922
G0 F6000 X71.917 Y76.373
G1 F2700 E64.55922
G0 F6000 X73.028 Y75.588
G0 X73.425 Y75.063
G0 X73.666 Y74.343
G0 X73.656 Y73.914
G0 X73.46 Y72.398
G0 X72.329 Y73.321
G0 X80.156 Y59.07
G0 X79.978 Y60.521
G0 X80.401 Y60.34
;TYPE:WALL-INNER
G1 F2700 E69.55922
G1 F1200 X80.787 Y60.274 E69.57746
G1 X81.088 Y60.164 E69.59238
G1 X81.428 Y59.97 E69.61061
G1 X81.736 Y59.697 E69.62977
G1 X81.983 Y59.372 E69.64878
G1 X82.186 Y58.924 E69.67168
G1 X82.267 Y58.523 E69.69073
G1 X82.267 Y58.115 E69.70973
G1 X82.186 Y57.716 E69.72869
G1 X81.983 Y57.266 E69.75168
G1 X81.736 Y56.941 E69.77069
G1 X81.431 Y56.671 E69.78965
G1 X81.08 Y56.47 E69.80849
G1 X80.695 Y56.341 E69.82739
G1 X80.207 Y56.293 E69.85023
G1 X79.801 Y56.343 E69.86927
G1 X79.424 Y56.467 E69.88775
G1 X79.078 Y56.665 E69.90632
G1 X78.829 Y56.874 E69.92145
G1 X78.528 Y57.248 E69.94381
G1 X78.38 Y57.54 E69.95905
G1 X78.261 Y57.924 E69.97777
G1 X78.223 Y58.409 E70.00043
G1 X78.307 Y58.899 E70.02357
G1 X78.426 Y59.204 E70.03882
G1 X78.626 Y59.531 E70.05667
G1 X78.841 Y59.776 E70.07185
G1 X79.229 Y60.071 E70.09454
G1 X79.605 Y60.241 E70.11376
G1 X80.002 Y60.331 E70.13271
G1 X80.401 Y60.34 E70.1513
G0 F6000 X80.372 Y59.939
;TYPE:WALL-OUTER
G1 F1200 X80.684 Y59.886 E70.16603
G1 X80.919 Y59.8 E70.17768
G1 X81.194 Y59.643 E70.19243
G1 X81.441 Y59.424 E70.2078
G1 X81.637 Y59.166 E70.22289
G1 X81.803 Y58.8 E70.2416
G1 X81.867 Y58.483 E70.25666
G1 X81.867 Y58.155 E70.27193
G1 X81.803 Y57.84 E70.2869
G1 X81.637 Y57.472 E70.3057
G1 X81.441 Y57.214 E70.32078
G1 X81.197 Y56.998 E70.33596
G1 X80.916 Y56.837 E70.35104
G1 X80.611 Y56.735 E70.36601
G1 X80.212 Y56.695 E70.38469
G1 X79.889 Y56.735 E70.39984
G1 X79.587 Y56.834 E70.41464
G1 X79.308 Y56.994 E70.42962
G1 X79.116 Y57.155 E70.44128
