;FLAVOR:Marlin
;TIME:15181
;Filament used: 11.3187m
;Layer height: 0.16
;MINX:56.5
;MINY:37.126
;MINZ:0.2
;MAXX:178.5
;MAXY:159.126
;MAXZ:12.8
;Generated with Cura_SteamEngine 4.10.0
M140 S60
M105
M190 S60
M104 S200
M105
M109 S200
M82 ;absolute extrusion mode
; Ender 3 Custom Start G-code
G92 E0 ; Reset Extruder
G28 ; Home all axes
G1 Z2.0 F3000 ; Move Z Axis up little to prevent scratching of Heat Bed
G1 X0.1 Y20 Z0.3 F5000.0 ; Move to start position
G1 X0.1 Y200.0 Z0.3 F1500.0 E15 ; Draw the first line
G1 X0.4 Y200.0 Z0.3 F5000.0 ; Move to side a little
G1 X0.4 Y20 Z0.3 F1500.0 E30 ; Draw the second line
G92 E0 ; Reset Extruder
G1 Z2.0 F3000 ; Move Z Axis up little to prevent scratching of Heat Bed
G1 X5 Y20 Z0.3 F5000.0 ; Move over to prevent blob squish
G92 E0
G92 E0
G1 F2700 E-5
;LAYER_COUNT:71
;LAYER:0
M107
G0 F6000 X59.437 Y43.921 Z0.2
;TYPE:SKIRT
G1 F2700 E0
G1 F1200 X59.996 Y43.162 E0.03135
G1 X60.132 Y42.993 E0.03857
G1 X60.451 Y42.614 E0.05504
G1 X60.615 Y42.428 E0.06329
G1 X61.064 Y41.949 E0.08513
G1 X61.228 Y41.784 E0.09287
G1 X61.605 Y41.422 E0.11025
G1 X61.781 Y41.261 E0.11818
G1 X62.143 Y40.944 E0.13419
G1 X62.34 Y40.779 E0.14273
G1 X62.789 Y40.422 E0.16181
G1 X62.995 Y40.267 E0.17039
G1 X63.386 Y39.986 E0.1864
G1 X63.558 Y39.868 E0.19334
G1 X64.122 Y39.507 E0.21561
G1 X64.397 Y39.342 E0.22628
G1 X65.393 Y38.811 E0.26382
G1 X66.049 Y38.504 E0.28791
G1 X66.934 Y38.136 E0.31979
G1 X67.109 Y38.072 E0.32599
G1 X67.62 Y37.899 E0.34393
G1 X67.874 Y37.82 E0.35278
G1 X68.374 Y37.678 E0.37006
G1 X68.601 Y37.619 E0.37786
G1 X69.137 Y37.494 E0.39617
G1 X69.388 Y37.442 E0.4047
G1 X69.953 Y37.34 E0.42379
G1 X70.188 Y37.304 E0.4317
G1 X70.695 Y37.238 E0.4487
G1 X70.931 Y37.213 E0.4566
G1 X71.48 Y37.169 E0.47492
G1 X71.768 Y37.153 E0.48451
G1 X72.241 Y37.137 E0.50025
G1 X73.182 Y37.126 E0.53155
G1 X161.928 Y37.126 E3.48325
G1 X162.642 Y37.134 E3.507
G1 X162.939 Y37.141 E3.51688
G1 X163.246 Y37.153 E3.5271
G1 X163.762 Y37.186 E3.5443
G1 X164.017 Y37.208 E3.55281
G1 X164.577 Y37.271 E3.57156
G1 X164.794 Y37.301 E3.57884
G1 X165.285 Y37.38 E3.59538
G1 X165.545 Y37.428 E3.60418
G1 X166.198 Y37.569 E3.6264
G1 X166.472 Y37.637 E3.63579
G1 X166.938 Y37.763 E3.65184
G1 X167.131 Y37.82 E3.65854
G1 X167.635 Y37.983 E3.67615
G1 X167.876 Y38.067 E3.68464
G1 X168.358 Y38.247 E3.70175
G1 X168.572 Y38.333 E3.70943
G1 X169.066 Y38.546 E3.72732
G1 X169.303 Y38.655 E3.73599
G1 X169.776 Y38.887 E3.75352
G1 X169.984 Y38.995 E3.76131
G1 X170.469 Y39.262 E3.77973
G1 X170.669 Y39.379 E3.78743
G1 X171.106 Y39.648 E3.8045
G1 X171.337 Y39.798 E3.81366
G1 X171.822 Y40.132 E3.83325
G1 X171.995 Y40.258 E3.84037
G1 X172.357 Y40.534 E3.85551
G1 X172.546 Y40.684 E3.86353
G1 X173.069 Y41.126 E3.88631
G1 X173.27 Y41.307 E3.8953
G1 X173.591 Y41.608 E3.90994
G1 X173.756 Y41.769 E3.91761
G1 X174.165 Y42.19 E3.93713
G1 X174.34 Y42.38 E3.94572
G1 X174.696 Y42.786 E3.96368
G1 X174.862 Y42.985 E3.9723
G1 X175.172 Y43.374 E3.98884
G1 X175.302 Y43.545 E3.99599
G1 X175.609 Y43.97 E4.01343
G1 X175.763 Y44.194 E4.02247
G1 X176.093 Y44.704 E4.04267
G1 X176.213 Y44.901 E4.05034
G1 X176.461 Y45.329 E4.0668
G1 X176.584 Y45.553 E4.0753
G1 X176.854 Y46.077 E4.0949
G1 X176.944 Y46.264 E4.1018
G1 X177.157 Y46.734 E4.11897
G1 X177.267 Y46.993 E4.12833
G1 X177.44 Y47.425 E4.1438
G1 X177.517 Y47.63 E4.15109
G1 X177.714 Y48.202 E4.17121
G1 X177.79 Y48.444 E4.17964
G1 X177.945 Y48.986 E4.19839
G1 X178.013 Y49.249 E4.20743
G1 X178.129 Y49.744 E4.22434
G1 X178.176 Y49.968 E4.23195
G1 X178.278 Y50.525 E4.25079
G1 X178.317 Y50.774 E4.25917
G1 X178.386 Y51.297 E4.27671
G1 X178.411 Y51.529 E4.28448
G1 X178.454 Y52.053 E4.30196
G1 X178.471 Y52.338 E4.31146
G1 X178.49 Y52.852 E4.32857
G1 X178.5 Y53.695 E4.35661
G1 X178.499 Y142.689 E7.31656
G1 X178.492 Y143.261 E7.33558
G1 X178.485 Y143.543 E7.34497
G1 X178.473 Y143.859 E7.35548
G1 X178.439 Y144.405 E7.37368
G1 X178.418 Y144.644 E7.38166
G1 X178.356 Y145.193 E7.40004
G1 X178.322 Y145.438 E7.40826
G1 X178.241 Y145.937 E7.42508
G1 X178.196 Y146.179 E7.43326
G1 X178.075 Y146.743 E7.45245
G1 X178.016 Y146.988 E7.46083
G1 X177.888 Y147.472 E7.47748
G1 X177.822 Y147.7 E7.48538
G1 X177.645 Y148.257 E7.50482
G1 X177.566 Y148.484 E7.51281
G1 X177.372 Y148.999 E7.53111
G1 X177.278 Y149.231 E7.53944
G1 X177.072 Y149.707 E7.55669
G1 X176.959 Y149.952 E7.56566
G1 X176.777 Y150.327 E7.57953
G1 X176.681 Y150.516 E7.58658
G1 X176.326 Y151.16 E7.61104
G1 X176.201 Y151.37 E7.61916
G1 X175.967 Y151.746 E7.63389
G1 X175.827 Y151.961 E7.64243
G1 X175.492 Y152.447 E7.66206
G1 X175.343 Y152.651 E7.67046
G1 X175.103 Y152.968 E7.68369
G1 X174.966 Y153.142 E7.69105
G1 X174.51 Y153.683 E7.71459
G1 X174.344 Y153.868 E7.72285
G1 X174.024 Y154.211 E7.73846
G1 X173.851 Y154.388 E7.74669
G1 X173.455 Y154.773 E7.76506
G1 X173.254 Y154.959 E7.77417
G1 X172.825 Y155.335 E7.79314
G1 X172.657 Y155.475 E7.80041
G1 X172.278 Y155.778 E7.81655
G1 X172.077 Y155.931 E7.82495
G1 X171.642 Y156.245 E7.8428
G1 X171.444 Y156.381 E7.85079
G1 X170.919 Y156.72 E7.87157
G1 X170.698 Y156.854 E7.88017
G1 X170.303 Y157.083 E7.89535
G1 X170.087 Y157.202 E7.90356
G1 X169.558 Y157.474 E7.92334
G1 X169.359 Y157.57 E7.93069
G1 X168.865 Y157.794 E7.94873
G1 X168.638 Y157.89 E7.95693
G1 X168.173 Y158.074 E7.97356
G1 X167.93 Y158.164 E7.98218
G1 X167.418 Y158.34 E8.00019
G1 X167.177 Y158.416 E8.00859
G1 X166.513 Y158.603 E8.03153
G1 X166.198 Y158.681 E8.04233
G1 X165.749 Y158.782 E8.05763
G1 X165.582 Y158.816 E8.0633
G1 X165.035 Y158.913 E8.08178
G1 X164.804 Y158.948 E8.08955
G1 X164.38 Y159.004 E8.10378
G1 X164.13 Y159.032 E8.11214
G1 X163.581 Y159.079 E8.13047
G1 X163.337 Y159.094 E8.1386
G1 X162.976 Y159.111 E8.15062
G1 X162.714 Y159.117 E8.15934
G1 X161.928 Y159.126 E8.18548
G1 X73.061 Y159.125 E11.14121
G1 X72.175 Y159.112 E11.17068
G1 X71.861 Y159.103 E11.18113
G1 X71.699 Y159.096 E11.18652
G1 X71.162 Y159.059 E11.20443
G1 X70.913 Y159.036 E11.21274
G1 X70.413 Y158.979 E11.22948
G1 X70.204 Y158.95 E11.2365
G1 X69.724 Y158.872 E11.25267
G1 X69.447 Y158.821 E11.26204
G1 X68.802 Y158.682 E11.28399
G1 X68.559 Y158.622 E11.29231
G1 X68.039 Y158.48 E11.31024
G1 X67.792 Y158.406 E11.31881
G1 X67.365 Y158.269 E11.33373
G1 X67.159 Y158.198 E11.34098
G1 X66.428 Y157.916 E11.36704
G1 X65.95 Y157.702 E11.38446
G1 X65.313 Y157.399 E11.40792
G1 X64.426 Y156.927 E11.44134
G1 X64.222 Y156.806 E11.44922
G1 X63.756 Y156.513 E11.46753
G1 X63.575 Y156.393 E11.47476
G1 X63.148 Y156.095 E11.49207
G1 X62.968 Y155.963 E11.4995
G1 X62.606 Y155.687 E11.51464
G1 X62.397 Y155.52 E11.52354
G1 X61.92 Y155.116 E11.54433
G1 X61.736 Y154.951 E11.55255
G1 X61.347 Y154.585 E11.57031
G1 X61.175 Y154.415 E11.57836
G1 X60.785 Y154.008 E11.5971
G1 X60.638 Y153.847 E11.60436
G1 X60.333 Y153.499 E11.61975
G1 X60.151 Y153.282 E11.62917
G1 X59.762 Y152.791 E11.65
G1 X59.621 Y152.602 E11.65784
G1 X59.34 Y152.207 E11.67397
G1 X59.2 Y152.001 E11.68225
G1 X58.899 Y151.533 E11.70076
G1 X58.778 Y151.334 E11.7085
G1 X58.553 Y150.947 E11.72339
G1 X58.176 Y150.211 E11.7509
G1 X57.871 Y149.557 E11.7749
G1 X57.475 Y148.591 E11.80962
G1 X57.389 Y148.349 E11.81817
G1 X57.076 Y147.309 E11.85429
G1 X56.903 Y146.61 E11.87824
G1 X56.714 Y145.671 E11.9101
G1 X56.685 Y145.486 E11.91632
G1 X56.611 Y144.92 E11.93531
G1 X56.585 Y144.67 E11.94367
G1 X56.544 Y144.153 E11.96092
G1 X56.528 Y143.87 E11.97035
G1 X56.511 Y143.383 E11.98655
G1 X56.5 Y142.43 E12.01825
G1 X56.501 Y53.646 E14.97122
G1 X56.513 Y52.816 E14.99883
G1 X56.529 Y52.344 E15.01454
G1 X56.563 Y51.83 E15.03167
G1 X56.585 Y51.584 E15.03989
G1 X56.642 Y51.078 E15.05682
G1 X56.675 Y50.836 E15.06495
G1 X56.76 Y50.305 E15.08283
G1 X56.807 Y50.053 E15.09136
G1 X56.949 Y49.402 E15.11352
G1 X57.012 Y49.15 E15.12216
G1 X57.126 Y48.731 E15.1366
G1 X57.195 Y48.495 E15.14478
G1 X57.365 Y47.964 E15.16332
G1 X57.435 Y47.763 E15.1704
G1 X57.619 Y47.274 E15.18778
G1 X57.716 Y47.033 E15.19642
G1 X57.967 Y46.456 E15.21735
G1 X58.079 Y46.218 E15.2261
G1 X58.259 Y45.854 E15.2396
G1 X58.353 Y45.672 E15.24642
G1 X58.694 Y45.061 E15.26969
G1 X58.736 Y44.991 E15.2724
G1 X59.039 Y44.513 E15.29123
G1 X59.437 Y43.921 E15.31495
G0 F6000 X59.769 Y44.144
G1 F1200 X60.308 Y43.412 E15.34519
G1 X60.444 Y43.243 E15.3524
G1 X60.751 Y42.879 E15.36824
G1 X60.915 Y42.693 E15.37649
G1 X61.348 Y42.23 E15.39757
G1 X61.512 Y42.065 E15.40531
G1 X61.875 Y41.717 E15.42204
G1 X62.051 Y41.556 E15.42997
G1 X62.4 Y41.251 E15.44539
G1 X62.597 Y41.086 E15.45393
G1 X63.03 Y40.742 E15.47233
G1 X63.236 Y40.587 E15.4809
G1 X63.612 Y40.316 E15.49632
G1 X63.784 Y40.198 E15.50325
G1 X64.327 Y39.85 E15.5247
G1 X64.602 Y39.685 E15.53537
G1 X65.563 Y39.173 E15.57159
G1 X66.219 Y38.866 E15.59568
G1 X67.071 Y38.512 E15.62636
G1 X67.246 Y38.448 E15.63256
G1 X67.739 Y38.281 E15.64987
G1 X67.993 Y38.202 E15.65872
G1 X68.475 Y38.065 E15.67539
G1 X68.702 Y38.006 E15.68319
G1 X69.218 Y37.885 E15.70082
G1 X69.469 Y37.833 E15.70934
G1 X70.014 Y37.735 E15.72776
G1 X70.249 Y37.699 E15.73567
G1 X70.737 Y37.636 E15.75203
G1 X70.973 Y37.611 E15.75992
G1 X71.502 Y37.568 E15.77758
G1 X71.79 Y37.552 E15.78717
G1 X72.246 Y37.537 E15.80235
G1 X73.182 Y37.526 E15.83348
G1 X161.928 Y37.526 E18.78518
G1 X162.637 Y37.534 E18.80877
G1 X162.923 Y37.541 E18.81828
G1 X163.23 Y37.553 E18.8285
G1 X163.727 Y37.584 E18.84506
G1 X163.982 Y37.606 E18.85358
G1 X164.523 Y37.667 E18.87168
G1 X164.74 Y37.697 E18.87897
G1 X165.212 Y37.773 E18.89487
G1 X165.472 Y37.821 E18.90366
G1 X166.101 Y37.957 E18.92507
G1 X166.375 Y38.025 E18.93446
G1 X166.824 Y38.147 E18.94993
G1 X167.017 Y38.204 E18.95663
G1 X167.504 Y38.361 E18.97365
G1 X167.745 Y38.445 E18.98213
G1 X168.209 Y38.618 E18.9986
G1 X168.423 Y38.704 E19.00628
G1 X168.899 Y38.91 E19.02353
G1 X169.136 Y39.019 E19.0322
G1 X169.592 Y39.242 E19.04909
G1 X169.8 Y39.35 E19.05688
G1 X170.267 Y39.608 E19.07463
G1 X170.467 Y39.725 E19.08233
G1 X170.888 Y39.984 E19.09877
G1 X171.119 Y40.134 E19.10793
G1 X171.587 Y40.456 E19.12683
G1 X171.76 Y40.582 E19.13395
G1 X172.109 Y40.847 E19.14852
G1 X172.298 Y40.997 E19.15655
G1 X172.801 Y41.423 E19.17847
G1 X173.002 Y41.604 E19.18747
G1 X173.312 Y41.894 E19.20159
G1 X173.477 Y42.055 E19.20925
G1 X173.871 Y42.461 E19.22807
G1 X174.046 Y42.651 E19.23666
G1 X174.389 Y43.042 E19.25396
G1 X174.555 Y43.241 E19.26258
G1 X174.853 Y43.616 E19.27851
G1 X174.983 Y43.787 E19.28566
G1 X175.28 Y44.197 E19.30249
G1 X175.434 Y44.421 E19.31154
G1 X175.752 Y44.912 E19.33099
G1 X175.872 Y45.109 E19.33866
G1 X176.11 Y45.521 E19.35449
G1 X176.233 Y45.745 E19.36299
G1 X176.493 Y46.25 E19.38188
G1 X176.583 Y46.437 E19.38878
G1 X176.789 Y46.89 E19.40533
G1 X176.899 Y47.149 E19.41469
G1 X177.065 Y47.566 E19.42962
G1 X177.142 Y47.771 E19.43691
G1 X177.332 Y48.322 E19.45629
G1 X177.408 Y48.564 E19.46473
G1 X177.558 Y49.087 E19.48282
G1 X177.626 Y49.35 E19.49186
G1 X177.737 Y49.826 E19.50811
G1 X177.784 Y50.05 E19.51573
G1 X177.882 Y50.587 E19.53388
G1 X177.921 Y50.836 E19.54227
G1 X177.988 Y51.34 E19.55918
G1 X178.013 Y51.572 E19.56694
G1 X178.055 Y52.077 E19.58379
G1 X178.072 Y52.362 E19.59329
G1 X178.09 Y52.857 E19.60976
G1 X178.1 Y53.695 E19.63764
G1 X178.099 Y142.684 E22.59742
G1 X178.092 Y143.256 E22.61645
G1 X178.085 Y143.528 E22.6255
G1 X178.073 Y143.844 E22.63602
G1 X178.04 Y144.37 E22.65355
G1 X178.019 Y144.609 E22.66153
G1 X177.959 Y145.138 E22.67923
G1 X177.925 Y145.383 E22.68746
G1 X177.847 Y145.864 E22.70367
G1 X177.802 Y146.106 E22.71185
G1 X177.686 Y146.65 E22.73035
G1 X177.627 Y146.895 E22.73874
G1 X177.504 Y147.36 E22.75473
G1 X177.438 Y147.588 E22.76263
G1 X177.267 Y148.125 E22.78137
G1 X177.188 Y148.352 E22.78937
G1 X177.001 Y148.849 E22.80703
G1 X176.907 Y149.081 E22.81535
G1 X176.709 Y149.54 E22.83198
G1 X176.596 Y149.785 E22.84095
G1 X176.421 Y150.145 E22.85427
G1 X176.325 Y150.334 E22.86132
G1 X175.983 Y150.956 E22.88493
G1 X175.858 Y151.166 E22.89306
G1 X175.632 Y151.528 E22.90725
G1 X175.492 Y151.743 E22.91578
G1 X175.169 Y152.211 E22.9347
G1 X175.02 Y152.415 E22.9431
G1 X174.788 Y152.72 E22.95584
G1 X174.651 Y152.894 E22.96321
G1 X174.213 Y153.416 E22.98587
G1 X174.047 Y153.601 E22.99414
G1 X173.737 Y153.931 E23.0092
G1 X173.564 Y154.108 E23.01743
G1 X173.183 Y154.479 E23.03512
G1 X172.982 Y154.665 E23.04423
G1 X172.569 Y155.028 E23.06252
G1 X172.401 Y155.168 E23.06979
G1 X172.035 Y155.459 E23.08534
G1 X171.834 Y155.612 E23.09374
G1 X171.415 Y155.915 E23.11094
G1 X171.217 Y156.051 E23.11893
G1 X170.712 Y156.378 E23.13894
G1 X170.491 Y156.512 E23.14754
G1 X170.11 Y156.732 E23.16217
G1 X169.894 Y156.851 E23.17037
G1 X169.385 Y157.114 E23.18943
G1 X169.186 Y157.21 E23.19678
G1 X168.709 Y157.426 E23.21419
G1 X168.482 Y157.522 E23.22239
G1 X168.035 Y157.699 E23.23838
G1 X167.792 Y157.789 E23.247
G1 X167.298 Y157.958 E23.26436
G1 X167.057 Y158.034 E23.27277
G1 X166.417 Y158.214 E23.29488
G1 X166.102 Y158.292 E23.30567
G1 X165.669 Y158.39 E23.32044
G1 X165.502 Y158.424 E23.32611
G1 X164.975 Y158.517 E23.34391
G1 X164.744 Y158.552 E23.35168
G1 X164.336 Y158.606 E23.36537
G1 X164.086 Y158.634 E23.37373
G1 X163.556 Y158.68 E23.39143
G1 X163.312 Y158.695 E23.39956
G1 X162.962 Y158.711 E23.41121
G1 X162.709 Y158.717 E23.41963
G1 X161.928 Y158.726 E23.44561
G1 X73.066 Y158.725 E26.40117
G1 X72.18 Y158.712 E26.43064
G1 X71.716 Y158.696 E26.44608
G1 X71.199 Y158.661 E26.46332
G1 X70.95 Y158.638 E26.47163
G1 X70.468 Y158.582 E26.48777
G1 X70.259 Y158.553 E26.49479
G1 X69.797 Y158.479 E26.51035
G1 X69.52 Y158.428 E26.51972
G1 X68.898 Y158.294 E26.54088
G1 X68.655 Y158.234 E26.54921
G1 X68.154 Y158.097 E26.56648
G1 X67.907 Y158.023 E26.57506
G1 X67.495 Y157.89 E26.58946
G1 X67.289 Y157.819 E26.59671
G1 X66.585 Y157.548 E26.6218
G1 X66.122 Y157.341 E26.63867
G1 X65.485 Y157.038 E26.66213
G1 X64.63 Y156.583 E26.69434
G1 X64.426 Y156.462 E26.70223
G1 X63.977 Y156.18 E26.71986
G1 X63.796 Y156.06 E26.72709
G1 X63.385 Y155.773 E26.74376
G1 X63.205 Y155.641 E26.75118
G1 X62.856 Y155.374 E26.7658
G1 X62.647 Y155.207 E26.7747
G1 X62.187 Y154.818 E26.79473
G1 X62.003 Y154.653 E26.80295
G1 X61.629 Y154.3 E26.82006
G1 X61.457 Y154.13 E26.8281
G1 X61.08 Y153.738 E26.84619
G1 X60.933 Y153.577 E26.85344
G1 X60.639 Y153.242 E26.86827
G1 X60.457 Y153.025 E26.87769
G1 X60.083 Y152.551 E26.89777
G1 X59.942 Y152.362 E26.90561
G1 X59.671 Y151.982 E26.92114
G1 X59.531 Y151.776 E26.92942
G1 X59.241 Y151.325 E26.94725
G1 X59.12 Y151.126 E26.955
G1 X58.902 Y150.751 E26.96943
G1 X58.538 Y150.042 E26.99593
G1 X58.233 Y149.388 E27.01994
G1 X57.852 Y148.457 E27.05339
G1 X57.766 Y148.215 E27.06194
G1 X57.464 Y147.213 E27.09674
G1 X57.291 Y146.514 E27.12069
G1 X57.109 Y145.609 E27.1514
G1 X57.08 Y145.424 E27.15762
G1 X57.009 Y144.878 E27.17594
G1 X56.983 Y144.628 E27.1843
G1 X56.943 Y144.13 E27.20091
G1 X56.927 Y143.847 E27.21034
G1 X56.911 Y143.378 E27.22595
G1 X56.9 Y142.43 E27.25748
G1 X56.901 Y53.652 E30.21025
G1 X56.913 Y52.822 E30.23786
G1 X56.929 Y52.361 E30.2532
G1 X56.961 Y51.866 E30.2697
G1 X56.983 Y51.62 E30.27792
G1 X57.038 Y51.132 E30.29425
G1 X57.071 Y50.89 E30.30237
G1 X57.154 Y50.379 E30.31959
G1 X57.201 Y50.127 E30.32812
G1 X57.337 Y49.499 E30.34949
G1 X57.4 Y49.247 E30.35813
G1 X57.51 Y48.843 E30.37205
G1 X57.579 Y48.607 E30.38023
G1 X57.743 Y48.096 E30.39808
G1 X57.813 Y47.895 E30.40516
G1 X57.99 Y47.423 E30.42193
G1 X58.087 Y47.182 E30.43057
G1 X58.329 Y46.627 E30.45071
G1 X58.441 Y46.389 E30.45945
G1 X58.614 Y46.038 E30.47247
G1 X58.708 Y45.856 E30.47928
G1 X59.037 Y45.266 E30.50175
G1 X59.079 Y45.196 E30.50447
G1 X59.371 Y44.736 E30.52259
G1 X59.769 Y44.144 E30.54631
