;FLAVOR:Marlin
;TIME:3620
;Filament used: 3.54024m
;Layer height: 0.28
;MINX:54.25
;MINY:36.741
;MINZ:0.28
;MAXX:180.75
;MAXY:126.241
;MAXZ:3.08
;Generated with Cura_SteamEngine 4.10.0
M140 S60
M105
M190 S60
M104 S200
M105
M109 S200
M82 ;absolute extrusion mode
; Ender 3 Custom Start G-code
G92 E0 ; Reset Extruder
G28 ; Home all axes
G1 Z2.0 F3000 ; Move Z Axis up little to prevent scratching of Heat Bed
G1 X0.1 Y20 Z0.3 F5000.0 ; Move to start position
G1 X0.1 Y200.0 Z0.3 F1500.0 E15 ; Draw the first line
G1 X0.4 Y200.0 Z0.3 F5000.0 ; Move to side a little
G1 X0.4 Y20 Z0.3 F1500.0 E30 ; Draw the second line
G92 E0 ; Reset Extruder
G1 Z2.0 F3000 ; Move Z Axis up little to prevent scratching of Heat Bed
G1 X5 Y20 Z0.3 F5000.0 ; Move over to prevent blob squish
G92 E0
G92 E0
G1 F2700 E-5
;LAYER_COUNT:11
;LAYER:0
M107
G0 F6000 X56.246 Y41.444 Z0.28
;TYPE:SKIRT
G1 F2700 E0
G1 F1200 X56.816 Y40.699 E0.04368
G1 X57.448 Y40.005 E0.08739
G1 X58.136 Y39.368 E0.13105
G1 X58.876 Y38.792 E0.17471
G1 X59.662 Y38.28 E0.21839
G1 X60.489 Y37.838 E0.26205
G1 X61.351 Y37.468 E0.30573
G1 X62.241 Y37.172 E0.34941
G1 X63.153 Y36.954 E0.39307
G1 X64.08 Y36.813 E0.43673
G1 X64.951 Y36.754 E0.47738
G1 X65.272 Y36.745 E0.49234
G1 X65.58 Y36.741 E0.50668
G1 X169.043 Y36.741 E5.32435
G1 X169.899 Y36.752 E5.36421
G1 X170.835 Y36.806 E5.40787
G1 X171.763 Y36.938 E5.45151
G1 X172.677 Y37.15 E5.4952
G1 X173.569 Y37.439 E5.53887
G1 X174.434 Y37.802 E5.58255
G1 X175.264 Y38.238 E5.6262
G1 X176.055 Y38.743 E5.6699
G1 X176.799 Y39.314 E5.71357
G1 X177.492 Y39.946 E5.75724
G1 X178.129 Y40.634 E5.8009
G1 X178.704 Y41.375 E5.84458
G1 X179.215 Y42.161 E5.88823
G1 X179.657 Y42.989 E5.93194
G1 X180.026 Y43.851 E5.9756
G1 X180.321 Y44.741 E6.01926
G1 X180.539 Y45.653 E6.06292
G1 X180.679 Y46.581 E6.10662
G1 X180.737 Y47.442 E6.1468
G1 X180.746 Y47.762 E6.16171
G1 X180.75 Y48.071 E6.1761
G1 X180.749 Y114.641 E9.27588
G1 X180.74 Y115.368 E9.30973
G1 X180.689 Y116.305 E9.35343
G1 X180.557 Y117.233 E9.39707
G1 X180.348 Y118.147 E9.44073
G1 X180.061 Y119.04 E9.48441
G1 X179.699 Y119.906 E9.52811
G1 X179.265 Y120.737 E9.57177
G1 X178.761 Y121.528 E9.61544
G1 X178.192 Y122.273 E9.65909
G1 X177.561 Y122.968 E9.7028
G1 X176.874 Y123.606 E9.74646
G1 X176.135 Y124.183 E9.79012
G1 X175.349 Y124.695 E9.8338
G1 X174.523 Y125.138 E9.87744
G1 X173.661 Y125.51 E9.92116
G1 X172.772 Y125.806 E9.96479
G1 X171.86 Y126.026 E10.00847
G1 X170.933 Y126.167 E10.05213
G1 X170.049 Y126.228 E10.09339
G1 X169.728 Y126.237 E10.10835
G1 X169.42 Y126.241 E10.12269
G1 X65.815 Y126.24 E14.94697
G1 X65.117 Y126.231 E14.97948
G1 X64.181 Y126.179 E15.02313
G1 X63.252 Y126.047 E15.06682
G1 X62.338 Y125.837 E15.11049
G1 X61.445 Y125.55 E15.15417
G1 X60.58 Y125.187 E15.19785
G1 X59.749 Y124.753 E15.2415
G1 X58.958 Y124.249 E15.28518
G1 X58.213 Y123.679 E15.32885
G1 X57.519 Y123.048 E15.37253
G1 X56.882 Y122.361 E15.41616
G1 X56.305 Y121.621 E15.45985
G1 X55.793 Y120.835 E15.50353
G1 X55.35 Y120.008 E15.54721
G1 X54.979 Y119.147 E15.59087
G1 X54.683 Y118.257 E15.63454
G1 X54.464 Y117.345 E15.67822
G1 X54.323 Y116.418 E15.72188
G1 X54.263 Y115.529 E15.76337
G1 X54.254 Y115.196 E15.77888
G1 X54.25 Y114.899 E15.79271
G1 X54.251 Y48.266 E18.89542
G1 X54.26 Y47.601 E18.92639
G1 X54.313 Y46.665 E18.97005
G1 X54.445 Y45.736 E19.01374
G1 X54.656 Y44.822 E19.05742
G1 X54.944 Y43.93 E19.10106
G1 X55.307 Y43.065 E19.14474
G1 X55.742 Y42.234 E19.18842
G1 X56.246 Y41.444 E19.23205
G0 F6000 X56.642 Y41.576
G1 F1200 X57.211 Y40.852 E19.27493
G1 X57.839 Y40.18 E19.31776
G1 X58.524 Y39.564 E19.36066
G1 X59.26 Y39.011 E19.40352
G1 X60.041 Y38.523 E19.44641
G1 X60.861 Y38.105 E19.48926
G1 X61.715 Y37.76 E19.53215
G1 X62.595 Y37.49 E19.57501
G1 X63.495 Y37.298 E19.61786
G1 X64.409 Y37.184 E19.66075
G1 X64.962 Y37.154 E19.68654
G1 X65.283 Y37.145 E19.70149
G1 X65.58 Y37.141 E19.71533
G1 X169.043 Y37.141 E24.533
G1 X169.893 Y37.152 E24.57258
G1 X170.812 Y37.205 E24.61544
G1 X171.723 Y37.338 E24.65831
G1 X172.619 Y37.549 E24.70118
G1 X173.493 Y37.837 E24.74402
G1 X174.34 Y38.2 E24.78693
G1 X175.151 Y38.635 E24.82979
G1 X175.921 Y39.139 E24.87264
G1 X176.645 Y39.708 E24.91552
G1 X177.317 Y40.338 E24.95841
G1 X177.932 Y41.023 E25.00127
G1 X178.485 Y41.759 E25.04414
G1 X178.972 Y42.54 E25.087
G1 X179.389 Y43.361 E25.12988
G1 X179.734 Y44.215 E25.17276
G1 X180.003 Y45.095 E25.21561
G1 X180.195 Y45.996 E25.25851
G1 X180.308 Y46.909 E25.30135
G1 X180.337 Y47.453 E25.32671
G1 X180.346 Y47.773 E25.34162
G1 X180.35 Y48.071 E25.3555
G1 X180.349 Y114.636 E28.45504
G1 X180.34 Y115.363 E28.4889
G1 X180.289 Y116.282 E28.53176
G1 X180.158 Y117.194 E28.57466
G1 X179.948 Y118.09 E28.61751
G1 X179.662 Y118.965 E28.66038
G1 X179.301 Y119.812 E28.70325
G1 X178.867 Y120.624 E28.74612
G1 X178.365 Y121.396 E28.789
G1 X177.797 Y122.121 E28.83188
G1 X177.169 Y122.794 E28.87475
G1 X176.485 Y123.41 E28.91761
G1 X175.75 Y123.964 E28.96047
G1 X174.97 Y124.453 E29.00333
G1 X174.15 Y124.872 E29.04621
G1 X173.297 Y125.218 E29.08908
G1 X172.417 Y125.489 E29.13195
G1 X171.517 Y125.682 E29.17481
G1 X170.603 Y125.797 E29.21771
G1 X170.038 Y125.828 E29.24405
G1 X169.717 Y125.837 E29.25901
G1 X169.42 Y125.841 E29.27284
G1 X65.82 Y125.84 E34.09689
G1 X65.122 Y125.831 E34.12939
G1 X64.203 Y125.779 E34.17225
G1 X63.292 Y125.648 E34.21511
G1 X62.396 Y125.438 E34.25796
G1 X61.521 Y125.151 E34.30084
G1 X60.674 Y124.789 E34.34373
G1 X59.862 Y124.355 E34.3866
G1 X59.091 Y123.853 E34.42945
G1 X58.366 Y123.285 E34.47233
G1 X57.693 Y122.656 E34.51522
G1 X57.078 Y121.972 E34.55806
G1 X56.524 Y121.237 E34.60091
G1 X56.036 Y120.456 E34.6438
G1 X55.617 Y119.636 E34.68667
G1 X55.271 Y118.783 E34.72954
G1 X55.001 Y117.903 E34.7724
G1 X54.808 Y117.002 E34.8153
G1 X54.694 Y116.089 E34.85815
G1 X54.663 Y115.518 E34.88478
G1 X54.654 Y115.185 E34.90029
G1 X54.65 Y114.899 E34.91361
G1 X54.651 Y48.272 E38.01604
G1 X54.66 Y47.607 E38.04701
G1 X54.712 Y46.687 E38.08991
G1 X54.844 Y45.776 E38.13278
G1 X55.055 Y44.88 E38.17564
G1 X55.342 Y44.005 E38.21852
G1 X55.705 Y43.159 E38.26138
G1 X56.139 Y42.347 E38.30426
G1 X56.642 Y41.576 E38.34712
G0 F6000 X57.038 Y41.712
G1 F1200 X57.605 Y41.008 E38.38921
G1 X58.231 Y40.358 E38.43123
G1 X58.912 Y39.765 E38.47328
G1 X59.644 Y39.235 E38.51536
G1 X60.419 Y38.772 E38.5574
G1 X61.232 Y38.379 E38.59945
G1 X62.077 Y38.059 E38.64152
G1 X62.946 Y37.816 E38.68354
G1 X63.834 Y37.65 E38.7256
G1 X64.973 Y37.554 E38.77883
G1 X65.294 Y37.545 E38.79378
G1 X65.58 Y37.541 E38.8071
G1 X169.043 Y37.541 E43.62477
G1 X169.887 Y37.552 E43.66407
G1 X170.789 Y37.605 E43.70615
G1 X171.682 Y37.737 E43.74818
G1 X172.56 Y37.948 E43.79023
G1 X173.416 Y38.236 E43.83228
G1 X174.243 Y38.598 E43.87432
G1 X175.035 Y39.033 E43.91639
G1 X175.786 Y39.535 E43.95846
G1 X176.489 Y40.102 E44.00051
G1 X177.139 Y40.729 E44.04256
G1 X177.731 Y41.411 E44.08462
G1 X178.261 Y42.142 E44.12666
G1 X178.723 Y42.918 E44.16871
G1 X179.116 Y43.731 E44.21076
G1 X179.434 Y44.576 E44.2528
G1 X179.677 Y45.446 E44.29486
G1 X179.842 Y46.334 E44.33692
G1 X179.937 Y47.464 E44.38972
G1 X179.946 Y47.784 E44.40463
G1 X179.95 Y48.071 E44.41799
G1 X179.949 Y114.631 E47.51731
G1 X179.94 Y115.358 E47.55116
G1 X179.889 Y116.26 E47.59323
G1 X179.758 Y117.154 E47.6353
G1 X179.549 Y118.032 E47.67733
G1 X179.263 Y118.889 E47.7194
G1 X178.902 Y119.717 E47.76146
G1 X178.47 Y120.509 E47.80347
G1 X177.969 Y121.261 E47.84554
G1 X177.403 Y121.965 E47.8876
G1 X176.778 Y122.616 E47.92963
G1 X176.097 Y123.21 E47.9717
G1 X175.366 Y123.741 E48.01377
G1 X174.592 Y124.205 E48.0558
G1 X173.779 Y124.599 E48.09786
G1 X172.935 Y124.919 E48.13989
G1 X172.065 Y125.164 E48.18198
G1 X171.178 Y125.33 E48.224
G1 X170.027 Y125.428 E48.27779
G1 X169.706 Y125.437 E48.29274
G1 X169.42 Y125.441 E48.30606
G1 X65.825 Y125.44 E53.12988
G1 X65.127 Y125.431 E53.16238
G1 X64.226 Y125.38 E53.2044
G1 X63.332 Y125.248 E53.24648
G1 X62.454 Y125.039 E53.28851
G1 X61.597 Y124.752 E53.33059
G1 X60.77 Y124.391 E53.37261
G1 X59.977 Y123.958 E53.41468
G1 X59.226 Y123.457 E53.45672
G1 X58.522 Y122.891 E53.49878
G1 X57.871 Y122.265 E53.54084
G1 X57.278 Y121.584 E53.58288
G1 X56.748 Y120.853 E53.62493
G1 X56.284 Y120.078 E53.66699
G1 X55.89 Y119.265 E53.70906
G1 X55.57 Y118.421 E53.75109
G1 X55.326 Y117.551 E53.79316
G1 X55.16 Y116.663 E53.83522
G1 X55.063 Y115.508 E53.8892
G1 X55.054 Y115.175 E53.90471
G1 X55.05 Y114.899 E53.91756
G1 X55.051 Y48.277 E57.01976
G1 X55.06 Y47.612 E57.05073
G1 X55.112 Y46.71 E57.0928
G1 X55.244 Y45.817 E57.13483
G1 X55.454 Y44.939 E57.17687
G1 X55.741 Y44.082 E57.21895
G1 X56.103 Y43.255 E57.26099
G1 X56.536 Y42.463 E57.30302
G1 X57.038 Y41.712 E57.34508
G1 F2700 E52.34508
;MESH:TopWeightUnit-Body.stl
G0 F6000 X112.156 Y63.156
G0 X112.156 Y61.721
G0 X160.928 Y62.063
G0 X161.307 Y81.859
G0 X161.605 Y82.475
G0 X163.054 Y83.469
;TYPE:WALL-INNER
G1 F2700 E57.34508
G1 F1200 X163.543 Y83.517 E57.36796
G1 X163.95 Y83.467 E57.38705
G1 X164.326 Y83.343 E57.40549
G1 X164.672 Y83.146 E57.42403
G1 X164.922 Y82.936 E57.43923
G1 X165.231 Y82.549 E57.46229
G1 X165.436 Y82.096 E57.48545
G1 X165.517 Y81.695 E57.5045
G1 X165.517 Y81.288 E57.52345
G1 X165.441 Y80.906 E57.54158
G1 X165.324 Y80.606 E57.55658
G1 X165.122 Y80.275 E57.57463
G1 X164.842 Y79.971 E57.59388
G1 X164.516 Y79.737 E57.61256
G1 X164.145 Y79.569 E57.63153
G1 X163.761 Y79.481 E57.64987
G1 X163.542 Y79.465 E57.6601
G1 X163.149 Y79.494 E57.67845
G1 X162.755 Y79.605 E57.69751
G1 X162.327 Y79.837 E57.72018
G1 X162.016 Y80.109 E57.73941
G1 X161.768 Y80.436 E57.75852
G1 X161.564 Y80.886 E57.78153
G1 X161.498 Y81.209 E57.79688
G1 X161.483 Y81.287 E57.80058
G1 X161.483 Y81.695 E57.81958
G1 X161.498 Y81.772 E57.82323
G1 X161.564 Y82.094 E57.83854
G1 X161.767 Y82.544 E57.86152
G1 X162.014 Y82.869 E57.88053
G1 X162.318 Y83.138 E57.89943
G1 X162.669 Y83.341 E57.91831
G1 X163.054 Y83.469 E57.93721
G0 F6000 X163.138 Y83.075
;TYPE:WALL-OUTER
G1 F1200 X163.538 Y83.115 E57.95593
G1 X163.862 Y83.075 E57.97113
G1 X164.162 Y82.976 E57.98584
G1 X164.442 Y82.816 E58.00085
G1 X164.634 Y82.655 E58.01252
G1 X164.887 Y82.338 E58.03141
G1 X165.053 Y81.972 E58.05012
G1 X165.117 Y81.655 E58.06518
G1 X165.117 Y81.327 E58.08045
G1 X165.056 Y81.019 E58.09507
G1 X164.964 Y80.784 E58.10682
G1 X164.801 Y80.517 E58.12139
G1 X164.575 Y80.272 E58.13691
G1 X164.315 Y80.085 E58.15182
G1 X164.017 Y79.95 E58.16706
G1 X163.701 Y79.878 E58.18215
G1 X163.542 Y79.866 E58.18957
G1 X163.219 Y79.89 E58.20465
G1 X162.906 Y79.978 E58.21979
G1 X162.557 Y80.167 E58.23828
G1 X162.31 Y80.383 E58.25355
G1 X162.114 Y80.642 E58.26868
G1 X161.947 Y81.01 E58.2875
G1 X161.883 Y81.327 E58.30255
G1 X161.883 Y81.655 E58.31783
G1 X161.947 Y81.97 E58.33279
G1 X162.113 Y82.338 E58.35159
G1 X162.309 Y82.596 E58.36668
G1 X162.553 Y82.812 E58.38185
G1 X162.834 Y82.974 E58.39696
G1 X163.138 Y83.075 E58.41187
G0 F6000 X163.047 Y83.505
G1 F2700 E53.41187
G0 F6000 X161.401 Y82.147
G0 X161.307 Y81.859
G0 X160.928 Y100.919
G0 X74.072 Y100.919
G0 X73.693 Y81.86
G0 X72.963 Y82.798
G0 X71.543 Y83.517
;TYPE:WALL-INNER
G1 F2700 E58.41187
G1 F1200 X71.95 Y83.467 E58.43097
G1 X72.326 Y83.343 E58.4494
G1 X72.672 Y83.146 E58.46794
G1 X72.922 Y82.936 E58.48315
G1 X73.231 Y82.549 E58.50621
G1 X73.436 Y82.096 E58.52936
G1 X73.502 Y81.773 E58.54471
G1 X73.517 Y81.695 E58.54841
G1 X73.517 Y81.288 E58.56736
G1 X73.502 Y81.209 E58.5711
G1 X73.441 Y80.906 E58.5855
G1 X73.324 Y80.606 E58.60049
G1 X73.122 Y80.275 E58.61855
G1 X72.842 Y79.971 E58.63779
G1 X72.516 Y79.737 E58.65648
G1 X72.145 Y79.569 E58.67544
G1 X71.761 Y79.481 E58.69379
G1 X71.542 Y79.465 E58.70401
G1 X71.149 Y79.494 E58.72236
G1 X70.755 Y79.605 E58.74142
G1 X70.327 Y79.837 E58.76409
G1 X70.016 Y80.109 E58.78333
G1 X69.768 Y80.436 E58.80244
G1 X69.564 Y80.886 E58.82544
G1 X69.483 Y81.287 E58.84449
G1 X69.483 Y81.695 E58.86349
G1 X69.564 Y82.094 E58.88245
G1 X69.767 Y82.544 E58.90544
G1 X70.014 Y82.869 E58.92445
G1 X70.318 Y83.138 E58.94335
G1 X70.669 Y83.341 E58.96223
G1 X71.054 Y83.469 E58.98112
G1 X71.543 Y83.517 E59.004
G0 F6000 X71.538 Y83.115
;TYPE:WALL-OUTER
G1 F1200 X71.862 Y83.075 E59.0192
G1 X72.162 Y82.976 E59.03391
G1 X72.442 Y82.816 E59.04893
G1 X72.634 Y82.655 E59.06059
G1 X72.887 Y82.338 E59.07948
G1 X73.053 Y81.972 E59.09819
G1 X73.117 Y81.655 E59.11325
G1 X73.117 Y81.327 E59.12853
G1 X73.056 Y81.019 E59.14315
G1 X72.964 Y80.784 E59.1549
G1 X72.801 Y80.517 E59.16946
G1 X72.575 Y80.272 E59.18498
G1 X72.315 Y80.085 E59.1999
G1 X72.017 Y79.95 E59.21513
G1 X71.701 Y79.878 E59.23022
G1 X71.542 Y79.866 E59.23765
G1 X71.219 Y79.89 E59.25273
G1 X70.906 Y79.978 E59.26787
G1 X70.557 Y80.167 E59.28635
G1 X70.31 Y80.383 E59.30163
G1 X70.114 Y80.642 E59.31675
G1 X69.947 Y81.01 E59.33557
G1 X69.883 Y81.327 E59.35063
G1 X69.883 Y81.655 E59.3659
G1 X69.947 Y81.97 E59.38087
G1 X70.113 Y82.338 E59.39967
G1 X70.309 Y82.596 E59.41475
G1 X70.553 Y82.812 E59.42993
G1 X70.834 Y82.974 E59.44503
G1 X71.138 Y83.075 E59.45995
G1 X71.538 Y83.115 E59.47867
G0 F6000 X71.543 Y83.554
G0 X73.377 Y82.64
G0 X73.693 Y81.86
G0 X73.9 Y101.091
;TYPE:WALL-INNER
G1 F1200 X161.1 Y101.091 E63.53906
G1 X161.1 Y81.774 E64.43854
G1 X161.1 Y81.695 E64.44215
G1 X161.1 Y81.287 E64.46039
G1 X161.1 Y81.207 E64.46404
G1 X161.1 Y61.891 E65.36347
G1 X73.9 Y61.891 E69.42387
G1 X73.9 Y81.207 E70.3233
G1 X73.9 Y81.288 E70.327
G1 X73.9 Y81.695 E70.34519
G1 X73.9 Y81.775 E70.34884
G1 X73.9 Y101.091 E71.24828
G0 F6000 X74.3 Y100.691
;TYPE:WALL-OUTER
G1 F1200 X160.7 Y100.691 E75.27142
G1 X160.7 Y62.291 E77.05949
G1 X74.3 Y62.291 E81.08263
G1 X74.3 Y100.691 E82.8707
G1 F2700 E77.8707
G0 F6000 X74 Y100.691
G0 X112.159 Y101.261
G0 X112.159 Y99.826
G0 X170.415 Y101.281
G0 X168.94 Y101.281
G0 X169.15 Y114.641
;TYPE:WALL-INNER
G1 F2700 E82.8707
G1 F1200 X65.85 Y114.641 E87.68078
G1 X65.85 Y48.341 E90.76798
G1 X169.15 Y48.341 E95.57807
G1 X169.15 Y114.641 E98.66527
G0 F6000 X169.55 Y115.041
;TYPE:WALL-OUTER
G1 F1200 X65.45 Y115.041 E103.5126
G1 X65.45 Y47.941 E106.63706
G1 X169.55 Y47.941 E111.48439
G1 X169.55 Y115.041 E114.60885
G0 F6000 X169.28 Y114.771
G0 X169.04 Y114.251
G0 X168.76 Y114.251
;TYPE:SKIN
G1 F1200 X66.24 Y114.251 E119.38261
G1 X66.24 Y48.731 E122.4335
G1 X168.76 Y48.731 E127.20726
G1 X168.76 Y114.251 E130.25814
G1 F2700 E125.25814
G0 F6000 X169.04 Y114.251
G0 X168.94 Y101.231
G0 X170.415 Y101.231
G0 X159.847 Y99.838
G0 X161.29 Y101.231
G0 X161.49 Y101.481
G1 F2700 E130.25814
G1 F1200 X161.49 Y82.824 E131.12689
G1 X161.727 Y83.136 E131.14513
G1 X162.088 Y83.456 E131.1676
G1 X162.509 Y83.698 E131.19021
G1 X162.972 Y83.853 E131.21294
G1 X163.547 Y83.909 E131.23984
G1 X164.036 Y83.849 E131.26279
G1 X164.485 Y83.702 E131.28478
G1 X164.896 Y83.467 E131.30683
G1 X165.203 Y83.209 E131.3255
G1 X165.566 Y82.754 E131.35261
G1 X165.81 Y82.217 E131.38007
G1 X165.907 Y81.734 E131.40301
G1 X165.907 Y81.249 E131.42559
G1 X165.817 Y80.797 E131.44705
G1 X165.675 Y80.432 E131.46529
G1 X165.434 Y80.039 E131.48676
G1 X165.102 Y79.677 E131.50963
G1 X164.712 Y79.398 E131.53196
G1 X164.27 Y79.198 E131.55455
G1 X163.82 Y79.095 E131.57604
G1 X163.542 Y79.073 E131.58903
G1 X163.081 Y79.108 E131.61056
G1 X162.607 Y79.242 E131.63349
G1 X162.103 Y79.515 E131.66018
G1 X161.729 Y79.842 E131.68332
G1 X161.49 Y80.157 E131.70173
G1 X161.49 Y61.501 E132.57043
G1 X73.51 Y61.501 E136.66715
G1 X73.51 Y80.163 E137.53613
G1 X73.434 Y80.039 E137.5429
G1 X73.102 Y79.677 E137.56577
G1 X72.712 Y79.398 E137.5881
G1 X72.27 Y79.198 E137.61069
G1 X71.82 Y79.095 E137.63219
G1 X71.542 Y79.073 E137.64517
