;FLAVOR:Marlin
;TIME:3269
;Filament used: 3.03334m
;Layer height: 0.28
;MINX:80.142
;MINY:39.435
;MINZ:0.28
;MAXX:155.142
;MAXY:130.035
;MAXZ:5.04
;Generated with Cura_SteamEngine 4.10.0
M140 S60
M105
M190 S60
M104 S200
M105
M109 S200
M82 ;absolute extrusion mode
; Ender 3 Custom Start G-code
G92 E0 ; Reset Extruder
G28 ; Home all axes
G1 Z2.0 F3000 ; Move Z Axis up little to prevent scratching of Heat Bed
G1 X0.1 Y20 Z0.3 F5000.0 ; Move to start position
G1 X0.1 Y200.0 Z0.3 F1500.0 E15 ; Draw the first line
G1 X0.4 Y200.0 Z0.3 F5000.0 ; Move to side a little
G1 X0.4 Y20 Z0.3 F1500.0 E30 ; Draw the second line
G92 E0 ; Reset Extruder
G1 Z2.0 F3000 ; Move Z Axis up little to prevent scratching of Heat Bed
G1 X5 Y20 Z0.3 F5000.0 ; Move over to prevent blob squish
G92 E0
G92 E0
G1 F2700 E-5
;LAYER_COUNT:18
;LAYER:0
M107
G0 F6000 X81.634 Y44.928 Z0.28
;TYPE:SKIRT
G1 F2700 E0
G1 F1200 X82.138 Y44.138 E0.04363
G1 X82.708 Y43.393 E0.08731
G1 X83.34 Y42.699 E0.13102
G1 X84.028 Y42.062 E0.17468
G1 X84.768 Y41.486 E0.21835
G1 X85.554 Y40.974 E0.26203
G1 X86.381 Y40.532 E0.30569
G1 X87.243 Y40.162 E0.34937
G1 X88.133 Y39.866 E0.39304
G1 X89.045 Y39.648 E0.43671
G1 X89.972 Y39.507 E0.48037
G1 X90.843 Y39.448 E0.52102
G1 X91.164 Y39.439 E0.53597
G1 X91.472 Y39.435 E0.55031
G1 X143.435 Y39.435 E2.96993
G1 X144.291 Y39.446 E3.00979
G1 X145.227 Y39.5 E3.05345
G1 X146.155 Y39.632 E3.09709
G1 X147.069 Y39.844 E3.14078
G1 X147.961 Y40.133 E3.18444
G1 X148.826 Y40.496 E3.22812
G1 X149.656 Y40.932 E3.27178
G1 X150.447 Y41.437 E3.31548
G1 X151.191 Y42.008 E3.35915
G1 X151.884 Y42.64 E3.40282
G1 X152.521 Y43.328 E3.44648
G1 X153.096 Y44.069 E3.49016
G1 X153.607 Y44.855 E3.53381
G1 X154.049 Y45.683 E3.57751
G1 X154.418 Y46.545 E3.62118
G1 X154.713 Y47.435 E3.66484
G1 X154.931 Y48.347 E3.7085
G1 X155.071 Y49.275 E3.7522
G1 X155.129 Y50.136 E3.79238
G1 X155.138 Y50.456 E3.80729
G1 X155.142 Y50.765 E3.82168
G1 X155.141 Y118.435 E6.97268
G1 X155.132 Y119.162 E7.00653
G1 X155.081 Y120.099 E7.05023
G1 X154.949 Y121.027 E7.09387
G1 X154.74 Y121.941 E7.13753
G1 X154.453 Y122.834 E7.18121
G1 X154.091 Y123.7 E7.22491
G1 X153.657 Y124.531 E7.26857
G1 X153.153 Y125.322 E7.31224
G1 X152.584 Y126.067 E7.35589
G1 X151.953 Y126.762 E7.3996
G1 X151.266 Y127.4 E7.44326
G1 X150.527 Y127.977 E7.48692
G1 X149.741 Y128.489 E7.5306
G1 X148.915 Y128.932 E7.57424
G1 X148.053 Y129.304 E7.61796
G1 X147.164 Y129.6 E7.66159
G1 X146.252 Y129.82 E7.70527
G1 X145.325 Y129.961 E7.74893
G1 X144.441 Y130.022 E7.79019
G1 X144.12 Y130.031 E7.80515
G1 X143.812 Y130.035 E7.81949
G1 X91.707 Y130.034 E10.24572
G1 X91.009 Y130.025 E10.27822
G1 X90.073 Y129.973 E10.32187
G1 X89.144 Y129.841 E10.36557
G1 X88.23 Y129.631 E10.40923
G1 X87.337 Y129.344 E10.45291
G1 X86.472 Y128.981 E10.49659
G1 X85.641 Y128.547 E10.54025
G1 X84.85 Y128.043 E10.58392
G1 X84.105 Y127.473 E10.6276
G1 X83.411 Y126.842 E10.67127
G1 X82.774 Y126.155 E10.7149
G1 X82.197 Y125.415 E10.75859
G1 X81.685 Y124.629 E10.80227
G1 X81.242 Y123.802 E10.84596
G1 X80.871 Y122.941 E10.88961
G1 X80.575 Y122.051 E10.93329
G1 X80.356 Y121.139 E10.97696
G1 X80.215 Y120.212 E11.02062
G1 X80.155 Y119.323 E11.06211
G1 X80.146 Y118.99 E11.07762
G1 X80.142 Y118.693 E11.09145
G1 X80.143 Y50.96 E14.24539
G1 X80.152 Y50.295 E14.27636
G1 X80.205 Y49.359 E14.32001
G1 X80.337 Y48.43 E14.3637
G1 X80.548 Y47.516 E14.40738
G1 X80.836 Y46.624 E14.45103
G1 X81.199 Y45.759 E14.49471
G1 X81.634 Y44.928 E14.53838
G0 F6000 X82.031 Y45.041
G1 F1200 X82.534 Y44.27 E14.58125
G1 X83.103 Y43.546 E14.62413
G1 X83.731 Y42.874 E14.66696
G1 X84.416 Y42.258 E14.70985
G1 X85.152 Y41.705 E14.75272
G1 X85.933 Y41.217 E14.7956
G1 X86.753 Y40.799 E14.83846
G1 X87.607 Y40.454 E14.88135
G1 X88.487 Y40.184 E14.92421
G1 X89.387 Y39.992 E14.96706
G1 X90.301 Y39.878 E15.00995
G1 X90.854 Y39.848 E15.03574
G1 X91.175 Y39.839 E15.05069
G1 X91.472 Y39.835 E15.06452
G1 X143.435 Y39.835 E17.48414
G1 X144.285 Y39.846 E17.52372
G1 X145.204 Y39.899 E17.56658
G1 X146.115 Y40.032 E17.60945
G1 X147.011 Y40.243 E17.65231
G1 X147.885 Y40.531 E17.69516
G1 X148.732 Y40.894 E17.73807
G1 X149.543 Y41.329 E17.78093
G1 X150.313 Y41.833 E17.82378
G1 X151.037 Y42.402 E17.86666
G1 X151.709 Y43.032 E17.90955
G1 X152.324 Y43.717 E17.95241
G1 X152.877 Y44.453 E17.99528
G1 X153.364 Y45.234 E18.03814
G1 X153.781 Y46.055 E18.08102
G1 X154.126 Y46.909 E18.1239
G1 X154.395 Y47.789 E18.16675
G1 X154.587 Y48.69 E18.20965
G1 X154.7 Y49.603 E18.25249
G1 X154.729 Y50.147 E18.27785
G1 X154.738 Y50.467 E18.29276
G1 X154.742 Y50.765 E18.30664
G1 X154.741 Y118.43 E21.4574
G1 X154.732 Y119.157 E21.49126
G1 X154.681 Y120.076 E21.53412
G1 X154.55 Y120.988 E21.57702
G1 X154.34 Y121.884 E21.61987
G1 X154.054 Y122.759 E21.66274
G1 X153.693 Y123.606 E21.70561
G1 X153.259 Y124.418 E21.74848
G1 X152.757 Y125.19 E21.79136
G1 X152.189 Y125.915 E21.83425
G1 X151.561 Y126.588 E21.87711
G1 X150.877 Y127.204 E21.91997
G1 X150.142 Y127.758 E21.96283
G1 X149.362 Y128.247 E22.00569
G1 X148.542 Y128.666 E22.04857
G1 X147.689 Y129.012 E22.09144
G1 X146.809 Y129.283 E22.13431
G1 X145.909 Y129.476 E22.17717
G1 X144.995 Y129.591 E22.22007
G1 X144.43 Y129.622 E22.24642
G1 X144.109 Y129.631 E22.26137
G1 X143.812 Y129.635 E22.2752
G1 X91.712 Y129.634 E24.70119
G1 X91.014 Y129.625 E24.7337
G1 X90.095 Y129.573 E24.77656
G1 X89.184 Y129.442 E24.81941
G1 X88.288 Y129.232 E24.86227
G1 X87.413 Y128.945 E24.90515
G1 X86.566 Y128.583 E24.94804
G1 X85.754 Y128.149 E24.99091
G1 X84.983 Y127.647 E25.03375
G1 X84.258 Y127.079 E25.07664
G1 X83.585 Y126.45 E25.11953
G1 X82.97 Y125.766 E25.16236
G1 X82.416 Y125.031 E25.20522
G1 X81.928 Y124.25 E25.2481
G1 X81.509 Y123.43 E25.29098
G1 X81.163 Y122.577 E25.33384
G1 X80.893 Y121.697 E25.3767
G1 X80.7 Y120.796 E25.41961
G1 X80.586 Y119.883 E25.46245
G1 X80.555 Y119.312 E25.48908
G1 X80.546 Y118.979 E25.50459
G1 X80.542 Y118.693 E25.51791
G1 X80.543 Y50.966 E28.67156
G1 X80.552 Y50.301 E28.70253
G1 X80.604 Y49.381 E28.74544
G1 X80.736 Y48.47 E28.7883
G1 X80.947 Y47.574 E28.83116
G1 X81.234 Y46.699 E28.87404
G1 X81.597 Y45.853 E28.91691
G1 X82.031 Y45.041 E28.95978
G0 F6000 X82.428 Y45.157
G1 F1200 X82.93 Y44.406 E29.00184
G1 X83.497 Y43.702 E29.04394
G1 X84.123 Y43.052 E29.08596
G1 X84.804 Y42.459 E29.128
G1 X85.536 Y41.929 E29.17009
G1 X86.311 Y41.466 E29.21212
G1 X87.124 Y41.073 E29.25417
G1 X87.969 Y40.753 E29.29624
G1 X88.838 Y40.51 E29.33826
G1 X89.726 Y40.344 E29.38033
G1 X90.865 Y40.248 E29.43355
G1 X91.186 Y40.239 E29.4485
G1 X91.472 Y40.235 E29.46182
G1 X143.435 Y40.235 E31.88144
G1 X144.279 Y40.246 E31.92074
G1 X145.181 Y40.299 E31.96281
G1 X146.074 Y40.431 E32.00485
G1 X146.952 Y40.642 E32.04689
G1 X147.808 Y40.93 E32.08895
G1 X148.635 Y41.292 E32.13099
G1 X149.427 Y41.727 E32.17306
G1 X150.178 Y42.229 E32.21512
G1 X150.881 Y42.796 E32.25718
G1 X151.531 Y43.423 E32.29923
G1 X152.123 Y44.105 E32.34128
G1 X152.653 Y44.836 E32.38333
G1 X153.115 Y45.612 E32.42538
G1 X153.508 Y46.425 E32.46743
G1 X153.826 Y47.27 E32.50947
G1 X154.069 Y48.14 E32.55153
G1 X154.234 Y49.028 E32.59359
G1 X154.329 Y50.158 E32.64639
G1 X154.338 Y50.478 E32.6613
G1 X154.342 Y50.765 E32.67466
G1 X154.341 Y118.425 E35.82519
G1 X154.332 Y119.152 E35.85905
G1 X154.281 Y120.054 E35.90112
G1 X154.15 Y120.948 E35.94319
G1 X153.941 Y121.826 E35.98522
G1 X153.655 Y122.683 E36.02728
G1 X153.294 Y123.511 E36.06934
G1 X152.862 Y124.303 E36.11135
G1 X152.361 Y125.055 E36.15343
G1 X151.795 Y125.759 E36.19549
G1 X151.17 Y126.41 E36.23751
G1 X150.489 Y127.004 E36.27959
G1 X149.758 Y127.535 E36.32166
G1 X148.984 Y127.999 E36.36368
G1 X148.171 Y128.393 E36.40575
G1 X147.327 Y128.713 E36.44778
G1 X146.457 Y128.958 E36.48987
G1 X145.57 Y129.124 E36.53189
G1 X144.419 Y129.222 E36.58568
G1 X144.098 Y129.231 E36.60063
G1 X143.812 Y129.235 E36.61395
G1 X91.717 Y129.234 E39.03971
G1 X91.019 Y129.225 E39.07221
G1 X90.118 Y129.174 E39.11424
G1 X89.224 Y129.042 E39.15631
G1 X88.346 Y128.833 E39.19834
G1 X87.489 Y128.546 E39.24042
G1 X86.662 Y128.185 E39.28244
G1 X85.869 Y127.752 E39.32451
G1 X85.118 Y127.251 E39.36655
G1 X84.414 Y126.685 E39.40861
G1 X83.763 Y126.059 E39.45067
G1 X83.17 Y125.378 E39.49271
G1 X82.64 Y124.647 E39.53476
G1 X82.176 Y123.872 E39.57682
G1 X81.782 Y123.059 E39.61889
G1 X81.462 Y122.215 E39.66092
G1 X81.218 Y121.345 E39.70299
G1 X81.052 Y120.457 E39.74506
G1 X80.955 Y119.302 E39.79903
G1 X80.946 Y118.969 E39.81454
G1 X80.942 Y118.693 E39.82739
G1 X80.943 Y50.971 E42.98081
G1 X80.952 Y50.306 E43.01178
G1 X81.004 Y49.404 E43.05385
G1 X81.136 Y48.511 E43.09588
G1 X81.346 Y47.633 E43.13792
G1 X81.633 Y46.776 E43.18
G1 X81.995 Y45.949 E43.22204
G1 X82.428 Y45.157 E43.26407
G1 F2700 E38.26407
;MESH:UnoBase-Body.stl
G0 F6000 X90.73 Y50.024
G0 X91.456 Y50.749
G0 X91.936 Y64.316
G0 X93.441 Y64.174
G0 X93.834 Y64.214
G0 X94.473 Y64.503
G0 X94.948 Y65.014
G0 X95.19 Y65.677
G0 X95.198 Y66.109
G0 X94.993 Y66.78
G0 X94.739 Y67.083
G0 X93.991 Y67.886
;TYPE:WALL-INNER
G1 F2700 E43.26407
G1 F1200 X94.368 Y67.739 E43.28291
G1 X94.706 Y67.52 E43.30167
G1 X94.996 Y67.238 E43.3205
G1 X95.223 Y66.905 E43.33927
G1 X95.38 Y66.528 E43.35828
G1 X95.46 Y66.133 E43.37705
G1 X95.45 Y65.642 E43.39992
G1 X95.347 Y65.241 E43.4192
G1 X95.17 Y64.877 E43.43804
G1 X94.928 Y64.557 E43.45672
G1 X94.626 Y64.29 E43.4755
G1 X94.274 Y64.085 E43.49446
G1 X93.889 Y63.957 E43.51335
G1 X93.401 Y63.909 E43.53619
G1 X92.995 Y63.958 E43.55523
G1 X92.614 Y64.084 E43.57392
G1 X92.264 Y64.285 E43.59271
G1 X92.109 Y64.422 E43.60234
G1 X91.957 Y64.556 E43.61178
G1 X91.742 Y64.841 E43.6284
G1 X91.742 Y64.556 E43.63131
G1 X91.742 Y64.353 E43.63878
G1 X91.742 Y51.035 E44.25893
G1 X143.542 Y51.035 E46.67095
G1 X143.542 Y62.946 E47.22558
G1 X143.542 Y63.157 E47.2354
G1 X143.542 Y63.521 E47.25235
G1 X143.542 Y63.832 E47.26683
G1 X143.462 Y63.521 E47.26865
G1 X143.285 Y63.157 E47.2774
G1 X143.158 Y62.989 E47.28555
G1 X143.043 Y62.837 E47.29443
G1 X142.741 Y62.57 E47.3132
G1 X142.389 Y62.365 E47.33216
G1 X142.004 Y62.237 E47.35106
G1 X141.516 Y62.189 E47.37389
G1 X141.11 Y62.238 E47.39293
G1 X140.729 Y62.364 E47.41162
G1 X140.379 Y62.565 E47.43041
G1 X140.072 Y62.836 E47.44948
G1 X139.828 Y63.159 E47.46833
G1 X139.652 Y63.525 E47.48724
G1 X139.552 Y63.916 E47.50603
G1 X139.532 Y64.319 E47.52482
G1 X139.592 Y64.706 E47.54305
G1 X139.694 Y65.011 E47.55803
G1 X139.884 Y65.361 E47.57657
G1 X140.211 Y65.732 E47.5996
G1 X140.544 Y65.97 E47.61866
G1 X140.912 Y66.137 E47.63748
G1 X141.307 Y66.227 E47.65634
G1 X141.71 Y66.236 E47.67511
G1 X142.106 Y66.166 E47.69384
G1 X142.483 Y66.019 E47.71268
G1 X142.821 Y65.8 E47.73143
G1 X143.111 Y65.518 E47.75027
G1 X143.161 Y65.446 E47.75435
G1 X143.338 Y65.185 E47.76904
G1 X143.495 Y64.808 E47.78805
G1 X143.542 Y64.576 E47.79907
G1 X143.542 Y64.808 E47.79967
G1 X143.542 Y65.185 E47.80493
G1 X143.542 Y65.501 E47.81622
G1 X143.542 Y118.435 E50.28104
G1 X137.801 Y118.435 E50.54837
G1 X137.741 Y118.435 E50.55116
G1 X137.403 Y118.435 E50.5669
G1 X137.067 Y118.435 E50.58255
G1 X137.403 Y118.304 E50.58601
G1 X137.741 Y118.085 E50.59818
G1 X137.784 Y118.044 E50.60079
G1 X138.031 Y117.803 E50.61686
G1 X138.258 Y117.47 E50.63562
G1 X138.415 Y117.093 E50.65464
G1 X138.495 Y116.698 E50.67341
G1 X138.485 Y116.207 E50.69627
G1 X138.382 Y115.806 E50.71555
G1 X138.205 Y115.442 E50.7344
G1 X137.963 Y115.122 E50.75308
G1 X137.661 Y114.855 E50.77185
G1 X137.309 Y114.65 E50.79082
G1 X136.924 Y114.522 E50.80971
G1 X136.436 Y114.474 E50.83254
G1 X136.03 Y114.523 E50.85159
G1 X135.649 Y114.649 E50.87027
G1 X135.299 Y114.85 E50.88907
G1 X134.992 Y115.121 E50.90813
G1 X134.748 Y115.444 E50.92698
G1 X134.572 Y115.81 E50.94589
G1 X134.472 Y116.201 E50.96469
G1 X134.452 Y116.604 E50.98348
G1 X134.512 Y116.991 E51.00171
G1 X134.614 Y117.296 E51.01669
G1 X134.804 Y117.646 E51.03523
G1 X135.131 Y118.017 E51.05826
G1 X135.187 Y118.057 E51.06146
G1 X135.464 Y118.255 E51.07732
G1 X135.832 Y118.422 E51.09614
G1 X135.889 Y118.435 E51.09886
G1 X135.832 Y118.435 E51.0989
G1 X135.464 Y118.435 E51.10273
G1 X135.123 Y118.435 E51.11447
G1 X110.001 Y118.435 E52.28425
G1 X109.941 Y118.435 E52.28704
G1 X109.603 Y118.435 E52.30278
G1 X109.267 Y118.435 E52.31843
G1 X109.603 Y118.304 E52.32189
G1 X109.941 Y118.085 E52.33406
G1 X109.984 Y118.044 E52.33667
G1 X110.231 Y117.803 E52.35274
G1 X110.458 Y117.47 E52.37151
G1 X110.615 Y117.093 E52.39052
G1 X110.695 Y116.698 E52.40929
G1 X110.685 Y116.207 E52.43216
G1 X110.582 Y115.806 E52.45143
G1 X110.405 Y115.442 E52.47028
G1 X110.163 Y115.122 E52.48896
G1 X109.861 Y114.855 E52.50773
G1 X109.509 Y114.65 E52.5267
G1 X109.124 Y114.522 E52.54559
G1 X108.636 Y114.474 E52.56843
G1 X108.23 Y114.523 E52.58747
G1 X107.849 Y114.649 E52.60615
G1 X107.499 Y114.85 E52.62495
G1 X107.192 Y115.121 E52.64402
G1 X106.948 Y115.444 E52.66286
G1 X106.772 Y115.81 E52.68178
G1 X106.672 Y116.201 E52.70057
G1 X106.652 Y116.604 E52.71936
G1 X106.712 Y116.991 E52.73759
G1 X106.814 Y117.296 E52.75257
G1 X107.004 Y117.646 E52.77111
G1 X107.331 Y118.017 E52.79414
G1 X107.387 Y118.057 E52.79734
G1 X107.664 Y118.255 E52.8132
G1 X108.032 Y118.422 E52.83202
G1 X108.089 Y118.435 E52.83474
G1 X108.032 Y118.435 E52.83478
G1 X107.664 Y118.435 E52.83861
G1 X107.323 Y118.435 E52.85035
G1 X91.742 Y118.435 E53.57586
G1 X91.742 Y67.495 E55.94784
G1 X91.742 Y67.452 E55.94984
G1 X91.742 Y67.081 E55.96712
G1 X91.742 Y67.031 E55.96945
G1 X91.769 Y67.081
G1 X92.096 Y67.452 E55.98261
G1 X92.131 Y67.477 E55.98451
G1 X92.429 Y67.69 E56.00157
G1 X92.797 Y67.857 E56.02039
G1 X93.192 Y67.947 E56.03925
G1 X93.595 Y67.956 E56.05802
G1 X93.991 Y67.886 E56.07675
G0 F6000 X93.883 Y67.499
;TYPE:WALL-OUTER
G1 F1200 X94.185 Y67.381 E56.09185
G1 X94.455 Y67.206 E56.10683
G1 X94.688 Y66.979 E56.12197
G1 X94.87 Y66.713 E56.13698
G1 X94.996 Y66.411 E56.15222
G1 X95.059 Y66.097 E56.16713
G1 X95.051 Y65.696 E56.18581
G1 X94.97 Y65.379 E56.20104
G1 X94.828 Y65.087 E56.21616
G1 X94.633 Y64.83 E56.23118
G1 X94.391 Y64.616 E56.24623
G1 X94.109 Y64.452 E56.26142
G1 X93.805 Y64.351 E56.27633
G1 X93.405 Y64.311 E56.29505
G1 X93.083 Y64.35 E56.31015
G1 X92.778 Y64.451 E56.32512
G1 X92.498 Y64.612 E56.34016
G1 X92.252 Y64.829 E56.35543
G1 X92.056 Y65.088 E56.37055
G1 X91.915 Y65.382 E56.38574
G1 X91.835 Y65.696 E56.40082
G1 X91.819 Y66.018 E56.41584
G1 X91.867 Y66.332 E56.43063
G1 X91.947 Y66.571 E56.44236
G1 X92.099 Y66.85 E56.45716
G1 X92.366 Y67.153 E56.47596
G1 X92.63 Y67.342 E56.49108
G1 X92.925 Y67.476 E56.50617
G1 X93.241 Y67.548 E56.52126
G1 X93.564 Y67.555 E56.5363
G1 X93.883 Y67.499 E56.55139
G0 F6000 X94.001 Y67.922
G1 F2700 E51.55139
G0 F6000 X94.464 Y67.927
G0 X93.787 Y66.609
G0 X101.579 Y69.941
G0 X100.151 Y70.24
G0 X101.423 Y71.432
G0 X102.934 Y72.069
;TYPE:WALL-INNER
G1 F2700 E56.55139
G1 F1200 X103.279 Y71.999 E56.56778
G1 X103.609 Y71.879 E56.58413
G1 X103.92 Y71.709 E56.60063
G1 X104.203 Y71.492 E56.61724
G1 X104.448 Y71.241 E56.63357
G1 X104.65 Y70.961 E56.64965
G1 X104.809 Y70.648 E56.66599
G1 X104.921 Y70.315 E56.68235
G1 X104.982 Y69.971 E56.69862
G1 X104.992 Y69.629 E56.71455
G1 X104.947 Y69.27 E56.7314
G1 X104.852 Y68.931 E56.74779
G1 X104.707 Y68.611 E56.76415
G1 X104.517 Y68.317 E56.78045
G1 X104.285 Y68.054 E56.79678
G1 X104.016 Y67.826 E56.8132
G1 X103.716 Y67.643 E56.82957
G1 X103.39 Y67.506 E56.84603
G1 X103.049 Y67.42 E56.86241
G1 X102.701 Y67.385 E56.87869
G1 X102.35 Y67.403 E56.89506
G1 X102.007 Y67.472 E56.91135
G1 X101.675 Y67.592 E56.92779
G1 X101.367 Y67.76 E56.94412
G1 X101.087 Y67.973 E56.96051
G1 X100.841 Y68.224 E56.97687
